!!!!SEGMENT: pl-wtm--r-1030_kurpinski-karol-kazimierz--polonez.krn
!!!cenid: 18xx:2295
!!!COM: Kurpiński, Karol Kazimierz
!!!COM-rismID: pe30018952
!!!CDT: 1785/03/06-1857/09/18
!!!CNT: Polish
!!!OTL: Polonez
!!!PDT:
!!!AGN: Secular; Polonaise
!!!SMS-siglum: PL-Wtm
!!!SMS-shelfmark: R 1030
!!!SMS-shelfwork: W
!!!SMS-variant:
!!!SMS-altvar:
!!!NIFC-rismSourceID: 1001086700
!!!NIFC-islandoraID:
!!!URL-pdf-islandora:
!!!URL-scan:
!!!ONB-nifc:
!!!AIN: 1 clars 1 cor 2 empty 1 fagot 1 flt 1 timpa 1 tromp 1 viola 1 violn
!!!key:
**kern	**dynam	**kern	**dynam	**kern	**dynam	**kern	**dynam	**kern	**dynam	**kern	**dynam	**kern	**dynam	**kern	**dynam	**kern	**dynam	**kern	**dynam
*part10	*part10	*part9	*part9	*part8	*part8	*part7	*part7	*part6	*part6	*part5	*part5	*part4	*part4	*part3	*part3	*part2	*part2	*part1	*part1
*staff10	*	*staff9	*	*staff8	*	*staff7	*	*staff6	*	*staff5	*	*staff4	*	*staff3	*	*staff2	*	*staff1	*
*Itimpa	*	*Iempty	*	*Iviola	*	*Iempty	*	*Ivioln	*	*Itromp	*	*Ifagot	*	*Icor	*	*Iclars	*	*Iflt	*
*I"Timpani ad libitum	*	*I"Baſsi	*	*I"Viole	*	*I"2	*	*I"V: 1	*	*I"Tromba in B	*	*I"Fagotti	*	*I"Corni in B.	*	*I"Clarinetto in B.	*	*I"Flauti	*
*I'timp	*	*I'B	*	*I'vle	*	*I'vl 2	*	*I'vl 1	*	*I'tr	*	*I'fg	*	*I'cor	*	*I'cl	*	*I'fl	*
*clefF4	*	*clefF4	*	*clefC3	*	*clefG2	*	*clefG2	*	*clefG2	*	*clefF4	*	*clefG2	*	*clefG2	*	*clefG2	*
*	*	*	*	*	*	*	*	*	*	*ITrd1c2	*	*	*	*ITrd1c2	*	*ITrd1c2	*	*	*
*k[b-e-]	*	*k[b-e-]	*	*k[b-e-]	*	*k[b-e-]	*	*k[b-e-]	*	*k[b-e-]	*	*k[b-e-]	*	*k[b-e-]	*	*k[b-e-]	*	*k[b-e-]	*
*B-:	*	*B-:	*	*B-:	*	*B-:	*	*B-:	*	*B-:	*	*B-:	*	*B-:	*	*B-:	*	*B-:	*
*M3/4	*	*M3/4	*	*M3/4	*	*M3/4	*	*M3/4	*	*M3/4	*	*M3/4	*	*M3/4	*	*M3/4	*	*M3/4	*
*>[A,B,B,C,C,D,D,E,E,D,E]	*	*>[A,B,B,C,C,D,D,E,E,D,E]	*	*>[A,B,B,C,C,D,D,E,E,D,E]	*	*>[A,B,B,C,C,D,D,E,E,D,E]	*	*>[A,B,B,C,C,D,D,E,E,D,E]	*	*>[A,B,B,C,C,D,D,E,E,D,E]	*	*>[A,B,B,C,C,D,D,E,E,D,E]	*	*>[A,B,B,C,C,D,D,E,E,D,E]	*	*>[A,B,B,C,C,D,D,E,E,D,E]	*	*>[A,B,B,C,C,D,D,E,E,D,E]	*
=1	=1	=1	=1	=1	=1	=1	=1	=1	=1	=1	=1	=1	=1	=1	=1	=1	=1	=1	=1
*	*	*	*	*	*	*	*	*	*	*	*	*	*	*	*	*^	*	*	*
*>A	*	*>A	*	*>A	*	*>A	*	*>A	*	*>A	*	*>A	*	*>A	*	*>A	*>A	*	*>A	*
*2\right	*	*2\right	*	*2\right	*	*2\right	*	*2\right	*	*2\right	*	*2\right	*	*2\right	*	*2\right	*2\right	*	*2\right	*
!!LO:TX:a:t=P:problem:all\right:global
!	!	!	!	!	!	!	!	!	!	!	!	!	!	!	!	!	!	!	!LO:TX:a:Bi:t=4. Polonez grany na balu u J O&colon; Księcia namiestnika dla N&colon; Cesarza Roſyiskiego\ni Krola Polskiego w dniu 11. Września r&colon; 1820.\nzkomponowany p(rzez) Karola Kurpinſkiego	!
!	!	!	!	!	!	!	!	!	!	!	!	!	!	!	!	!LO:TX:t=P:rendering:problem=mimo transpozycji na początku błędnie znaki ee- b-	!	!	!	!
!LO:TX:t=P:problem=w źródle po kluczu dwa dźwięki wskazujące strój instrumentu F BB-	!	!	!	!	!	!	!	!	!	!	!	!	!	!	!	!	!	!	!	!
!LO:TX:a:t=P:problem=w źródle niewidoczne znaki przykluczowe	!	!	!	!	!	!	!	!	!	!	!	!	!	!	!	!	!	!	!	!
!	!	!	!	!	!	!LO:TX:a:Bi:t=Unis	!	!	!	!	!	!	!	!	!	!	!	!	!	!
!	!	!	!	!	!	!	!	!	!	!	!	!	!	!	!LO:DY:b:rj	!	!	!	!	!
4BB-/	.	4BB-/	.	8dL 8B-\	.	8bb-Lyy 8b-yy 8d/yy	.	8bb-L 8b- 8d/	.	4b-\	.	8r	.	4b- 4B-/	f	8r	4ryy	.	8r	.
.	.	.	.	16r	.	16ryy	.	16r	.	.	.	16r	.	.	.	16r	.	.	16r	.
!	!	!	!	!	!	!	!	!	!	!	!	!LO:N:vis=16	!	!	!	!LO:N:vis=16	!	!	!LO:N:vis=16	!
!	!	!	!	!	!	!	!	!	!	!	!	!	!	!	!	!	!	!LO:DY:b:rj	!	!
.	.	.	.	(>32F\LL	.	(y<32f/LLyy	.	(<32f/LL	.	.	.	(>32F\LLL	.	.	.	(>32ffLLL 32f\	.	f	(>32ff\LLL	.
!	!	!	!	!LO:N:vis=32	!	!LO:N:vis=32	!	!LO:N:vis=32	!	!	!	!LO:N:vis=32	!	!	!	!LO:N:vis=32	!	!	!LO:N:vis=32	!
.	.	.	.	64G\L	.	64g/Lyy	.	64g/L	.	.	.	64G\L	.	.	.	64ggL 64g\	.	.	64gg\L	.
!	!	!	!	!LO:N:vis=32	!	!LO:N:vis=32	!	!LO:N:vis=32	!	!	!	!LO:N:vis=32	!	!	!	!LO:N:vis=32	!	!	!LO:N:vis=32	!
.	.	.	.	64A\JJJJ	.	64a/JJJJyy	.	64a/JJJJ	.	.	.	64A\JJJJ	.	.	.	64aaJJJJ 64a\	.	.	64aa\JJJJ	.
8r	.	8r	.	8B-/L)	.	8b-/L)yy	.	8b-/L)	.	8r	.	8B-\L)	.	8r	.	8bb- 8b-/L)	8b-\L	.	8bb-\L)	.
8F\L	.	8F\L	.	8F'</	.	8f'</yy	.	8f'</	.	8f/L	.	8F\	.	8fL 8F/	.	8f/	8f\	.	8ff'>\	.
8BB-\	.	8B-\	.	8B-'</	.	8b-'</yy	.	8b-'</	.	8b-/	.	8B-\	.	8b- 8B-/	.	8b-/	8b-\	.	8bb-'>\	.
8F\J	.	8F\J	.	8F'</J	.	8f'</Jyy	.	8f'</J	.	8f/J	.	8F\J	.	8fJ 8F/	.	8f/J	8f\J	.	8ff'>\J	.
*	*	*	*	*	*	*	*	*	*	*	*	*	*	*	*	*v	*v	*	*	*
=2	=2	=2	=2	=2	=2	=2	=2	=2	=2	=2	=2	=2	=2	=2	=2	=2	=2	=2	=2
*	*	*	*	*	*	*	*	*	*	*	*	*	*	*^	*	*	*	*	*
4BB-/	.	8B-\L	.	8B-/L	.	8b-/Lyy	.	8b-/L	.	8b-/L	.	8B-\L	.	8b-L 8B-/	8B-\L	.	8r	.	8r	.
.	.	16r	.	16r	.	16ryy	.	16r	.	16r	.	16r	.	16r	16ryy	.	[>8dd [>8b-/	>	[>8ddd 8bb-\	>
!	!	!LO:N:vis=16	!	!LO:N:vis=16	!	!LO:N:vis=16	!	!LO:N:vis=16	!	!	!	!LO:N:vis=16	!	!	!	!	!	!	!	!
.	.	(>32F\LL	.	(<32F/LL	.	(y<32f/LLyy	.	(<32f/LL	.	32b-/LL	.	(>32F\LL	.	32b-/LL	32b-\LL	.	.	.	.	.
!	!	!LO:N:vis=32	!	!LO:N:vis=32	!	!LO:N:vis=32	!	!LO:N:vis=32	!	!	!	!LO:N:vis=32	!	!	!	!	!	!	!	!
.	.	64G\L	.	64G/L	.	64g/Lyy	.	64g/L	.	32b-/JJJ	.	64G\L	.	32b-/JJJ	32b-\JJJ	.	.	.	.	.
!	!	!LO:N:vis=32	!	!LO:N:vis=32	!	!LO:N:vis=32	!	!LO:N:vis=32	!	!	!	!LO:N:vis=32	!	!	!	!	!	!	!	!
.	.	64A\JJJJ	.	64A/JJJJ	.	64a/JJJJyy	.	64a/JJJJ	.	.	.	64A\JJJJ	.	.	.	.	.	.	.	.
4BB-/	.	4B-\)	.	4B-/)	.	4b-/)yy	.	4b-/)	.	4b-/	.	4B-\)	.	4b-/	4b-\	.	16dd]LL 16b-/]	]	16ddd]LL 16bb-\	]
.	.	.	.	.	.	.	.	.	.	.	.	.	.	.	.	.	16cc 16a/	.	16ccc 16aa\	.
.	.	.	.	.	.	.	.	.	.	.	.	.	.	.	.	.	16b- 16g/	.	16bb- 16gg\	.
.	.	.	.	.	.	.	.	.	.	.	.	.	.	.	.	.	16aJJ 16f/	.	16aaJJ 16ff\	.
4r	.	4r	.	4r	.	4r	.	4r	.	4r	.	4r	.	4r	4ryy	.	16gLL 16e-/	.	16ggLL 16ee-/	.
.	.	.	.	.	.	.	.	.	.	.	.	.	.	.	.	.	16f 16d/	.	16ff 16dd/	.
.	.	.	.	.	.	.	.	.	.	.	.	.	.	.	.	.	16e- 16c/	.	16ee- 16cc/	.
.	.	.	.	.	.	.	.	.	.	.	.	.	.	.	.	.	16dJJ 16B-/	.	16ddJJ 16b-/	.
=3	=3	=3	=3	=3	=3	=3	=3	=3	=3	=3	=3	=3	=3	=3	=3	=3	=3	=3	=3	=3
4F\	.	4c\	.	8c/L	.	8cc\Lyy	.	8cc\L	.	4cc\	.	8r	.	4cc/	4cc\	.	8r	.	8r	.
.	.	.	.	16r	.	16ryy	.	16r	.	.	.	16r	.	.	.	.	16r	.	16r	.
.	.	.	.	(<64F/LLL	.	(y>64f\LLLyy	.	(>64f\LLL	.	.	.	(>64F\LLLL	.	.	.	.	64ffLLLL 64f\	.	(>64ff\LLLL	.
.	.	.	.	64G/	.	64g\yy	.	64g\	.	.	.	64G\	.	.	.	.	64gg 64g\	.	64gg\	.
.	.	.	.	64A/	.	64a\yy	.	64a\	.	.	.	64A\	.	.	.	.	64aa 64a\	.	64aa\	.
.	.	.	.	64B-/JJJJ	.	64b-\JJJJyy	.	64b-\JJJJ	.	.	.	64B-\JJJJ)	.	.	.	.	64bb-JJJJ 64b-\	.	64bb-\JJJJ	.
4r	.	8r	.	8c/L)	.	8cc\L)yy	.	8cc\L)	.	8r	.	8c\L	.	8r	8ryy	.	8cccL 8cc\	.	8ccc\L)	.
.	.	8F\L	.	8F/	.	8f'>\yy	.	8f'>\	.	8f/L	.	8F\	.	8f/L	8f\L	.	8f'>\	.	8ff'>\	.
4r	.	8c\	.	8c/	.	8cc'>\yy	.	8cc'>\	.	8cc/	.	8c\	.	8cc/	8cc\	.	8cc'>\	.	8ccc'>\	.
.	.	8F\J	.	8F/J	.	8f'>\Jyy	.	8f'>\J	.	8f/J	.	8F\J	.	8f/J	8f\J	.	8f'>\J	.	8ff'>\J	.
=4	=4	=4	=4	=4	=4	=4	=4	=4	=4	=4	=4	=4	=4	=4	=4	=4	=4	=4	=4	=4
2.r	.	8c\L	.	8c/L	.	8cc/Lyy	.	8cc/L	.	8cc\L	.	8c\L	.	8cc/L	8cc\L	.	8r	.	8r	.
.	.	16r	.	16r	.	16ryy	.	16r	.	16r	.	16r	.	16r	16ryy	.	[>8ee- [>8cc\	>	[>8eee- [>8ccc\	>
.	.	64F\LLL	.	(<64F/LLL	.	(y<64f/LLLyy	.	(<64f/LLL	.	32cc\LL	.	64F\LLL	.	32cc/LL	32cc\LL	.	.	.	.	.
.	.	64G\	.	64G/	.	64g/yy	.	64g/	.	.	.	64G\	.	.	.	.	.	.	.	.
.	.	64A\	.	64A/	.	64a/yy	.	64a/	.	32cc\JJJ	.	64A\	.	32cc/JJJ	32cc\JJJ	.	.	.	.	.
.	.	64B-\JJJJ	.	64B-/JJJJ	.	64b-/JJJJyy	.	64b-/JJJJ	.	.	.	64B-\JJJJ	.	.	.	.	.	.	.	.
.	.	4c\	.	4c/)	.	4cc\)yy	.	4cc\)	.	4cc\	.	4c\	.	4cc/	4cc\	.	16ee-]LL 16cc\]	]	16eee-]LL 16ccc\]	]
.	.	.	.	.	.	.	.	.	.	.	.	.	.	.	.	.	16dd 16b-\	.	16ddd 16bb-\	.
.	.	.	.	.	.	.	.	.	.	.	.	.	.	.	.	.	16cc 16a\	.	16ccc 16aa\	.
.	.	.	.	.	.	.	.	.	.	.	.	.	.	.	.	.	16b-JJ 16g\	.	16bb-JJ 16gg\	.
.	.	4r	.	4r	.	4ryy	.	4r	.	4r	.	4r	.	4r	4ryy	.	16aLL 16f/	.	16aaLL 16ff\	.
.	.	.	.	.	.	.	.	.	.	.	.	.	.	.	.	.	16g 16e-/	.	16gg 16ee-\	.
.	.	.	.	.	.	.	.	.	.	.	.	.	.	.	.	.	16f 16d/	.	16ff 16dd\	.
.	.	.	.	.	.	.	.	.	.	.	.	.	.	.	.	.	16e-JJ 16c/	.	16ee-JJ 16cc\	.
=5	=5	=5	=5	=5	=5	=5	=5	=5	=5	=5	=5	=5	=5	=5	=5	=5	=5	=5	=5	=5
*	*	*	*	*	*	*	*	*	*	*	*	*	*	*	*	*	*^	*	*	*
4BB-/	.	4d\	.	8d\	.	8dd\Lyy	.	8dd\L	.	4dd\	.	8r	.	4dd/	4dd\	.	8r	8ryy	.	8r	.
!	!	!	!	!	!	!	!	!	!	!	!	!LO:N:vis=8	!	!	!	!	!	!	!	!	!
.	.	.	.	16r	.	16ryy	.	16r	.	.	.	16r	.	.	.	.	16r	16ryy	.	16r	.
.	.	.	.	(<32B-/LLL	.	(y>32b-\LLyy	.	(>32b-\LL	.	.	.	(>32B-\LLL	.	.	.	.	32b-/LLL	32b-\LLL	.	(>32bb-\LLL	.
.	.	.	.	32c/JJJ	.	32cc\JJJyy	.	32cc\JJJ	.	.	.	32c\JJJ	.	.	.	.	(>32cc/JJJ	32cc\JJJ	.	32ccc\JJJ	.
4r	.	8r	.	8d/L)	.	8dd\L)yy	.	8dd\L)	.	8r	.	8d\L)	.	8r	4ryy	.	8dd\L)	4ryy	.	8ddd\L)	.
.	.	8BB-'</L	.	8B-/	.	8b-'>\yy	.	8b-'>\	.	16b-\LL	.	8B-'>\	.	16b-/LL	.	.	8b-'>\	.	.	8bb-'>\	.
.	.	.	.	.	.	.	.	.	.	16b-\JJ	.	.	.	16b-/JJ	.	.	.	.	.	.	.
4r	.	8D'</	.	8d/	.	8dd'>\yy	.	8dd'>\	.	8b-\L	.	8d'>\	.	8b-/L	4ryy	.	8dd'>\	4ryy	.	8ddd'>\	.
.	.	8BB-'</J	.	8B-/J	.	8b-'>\Jyy	.	8b-'>\J	.	8b-\J	.	8B-'>\J	.	8b-/J	.	.	8b-'>\J	.	.	8bb-'>\J	.
*	*	*	*	*	*	*	*	*	*	*	*	*	*	*v	*v	*	*	*	*	*	*
*	*	*	*	*	*	*	*	*	*	*	*	*	*	*	*	*v	*v	*	*	*
=6	=6	=6	=6	=6	=6	=6	=6	=6	=6	=6	=6	=6	=6	=6	=6	=6	=6	=6	=6
4BB-/	.	4E-\	.	8e-/L	.	8ee-\Lyy	.	8ee-\L	.	4b-\	.	8r	.	4b-/	.	8r	.	8r	.
.	.	.	.	16r	.	16ryy	.	16r	.	.	.	16r	.	.	.	16r	.	16r	.
.	.	.	.	32B-/LL	.	(y>32b-\LLyy	.	(>32b-\LL	.	.	.	(>32B-\LLL	.	.	.	(>32b-\LLL	.	(>32bb-\LLL	.
!	!	!	!	!LO:N:vis=32	!	!LO:N:vis=32	!	!LO:N:vis=32	!	!	!	!LO:N:vis=32	!	!	!	!LO:N:vis=32	!	!LO:N:vis=32	!
.	.	.	.	64c/L	.	64cc\Lyy	.	64cc\L	.	.	.	64c\L	.	.	.	64cc\L	.	64ccc\L	.
!	!	!	!	!LO:N:vis=32	!	!LO:N:vis=32	!	!LO:N:vis=32	!	!	!	!LO:N:vis=32	!	!	!	!LO:N:vis=32	!	!LO:N:vis=32	!
.	.	.	.	64d/JJJJ	.	64dd\JJJJyy	.	64dd\JJJJ	.	.	.	64d\JJJJ	.	.	.	64dd\JJJJ	.	64ddd\JJJJ	.
4r	.	8r	.	8e-/L	.	8ee-\L)yy	.	8ee-\L)	.	8r	.	8e-\L)	.	8r	.	8ee-\L)	.	8eee-\L)	.
.	.	8BB-'</L	.	8B-/	.	8b-\yy	.	8b-\	.	16b-\LL	.	8B-\	.	16b-/LL	.	8b-'>\	.	8bb-'>\	.
.	.	.	.	.	.	.	.	.	.	16b-\JJ	.	.	.	16b-/JJ	.	.	.	.	.
4r	.	8E-'</	.	8e-/	.	8ee-\yy	.	8ee-\	.	8b-\L	.	8e-\	.	8b-/L	.	8ee-'>\	.	8eee-'>\	.
.	.	8BB-'</J	.	8B-/J	.	8b-\Jyy	.	8b-\J	.	8b-\J	.	8B-\J	.	8b-/J	.	8b-'>\J	.	8bb-'>\J	.
!!LO:PB:g=original
=7	=7	=7	=7	=7	=7	=7	=7	=7	=7	=7	=7	=7	=7	=7	=7	=7	=7	=7	=7
*	*	*	*	*	*	*	*	*	*	*	*	*	*	*	*	*^	*	*	*
*tremolo	*	*tremolo	*	*tremolo	*	*	*	*	*	*	*	*	*	*	*	*	*	*	*	*
!	!	!	!	!	!	!LO:TX:a:Bi:t=//	!	!	!	!	!	!	!	!	!	!LO:TX:a:Bi:t=1mo:rj	!	!	!	!
!	!	!	!LO:DY:b:rj	!	!LO:DY:b:rj	!	!	!	!	!	!	!	!	!	!	!LO:TX:b:Bi:t=2do:rj	!	!	!	!
32BB-/LLL	.	8G\L	sf	16b-LL 16g\	sf	8eenLyy 8b-yy 8g\yy	.	8eenL 8b- 8g\	.	8b-\L	.	2.G^<\	.	8b-\L	.	8r	4ryy	.	4r	.
32BB-/	.	.	.	.	.	.	.	.	.	.	.	.	.	.	.	.	.	.	.	.
32BB-/	.	.	.	16b- 16g\	.	.	.	.	.	.	.	.	.	.	.	.	.	.	.	.
32BB-/	.	.	.	.	.	.	.	.	.	.	.	.	.	.	.	.	.	.	.	.
32BB-/	.	8G\	.	16b- 16g\	.	16ryy	.	16r	.	16r	.	.	.	16r	.	16r	.	.	.	.
32BB-/	.	.	.	.	.	.	.	.	.	.	.	.	.	.	.	.	.	.	.	.
32BB-/	.	.	.	16b- 16g\	.	(y>64ee\LLLyy	.	(>64ee\LLL	.	32b-\LL	.	.	.	32b-\LL	.	(>64eeX\LLLL	.	.	.	.
.	.	.	.	.	.	64ff\yy	.	64ff\	.	.	.	.	.	.	.	64ff\	.	.	.	.
32BB-/	.	.	.	.	.	64gg\yy	.	64gg\	.	32b-\JJJ	.	.	.	32b-\JJJ	.	64gg\	.	.	.	.
.	.	.	.	.	.	64aa\JJJJyy	.	64aa\JJJJ	.	.	.	.	.	.	.	64aa\JJJJ	.	.	.	.
32BB-/	.	8G\	.	16b- 16g\	.	8bb-\L)yy	.	8bb-\L)	.	8b-\L	.	.	.	8b-\L	.	2bb-\)	2eeX\	.	2eeen^<\	.
32BB-/	.	.	.	.	.	.	.	.	.	.	.	.	.	.	.	.	.	.	.	.
32BB-/	.	.	.	16b- 16g\	.	.	.	.	.	.	.	.	.	.	.	.	.	.	.	.
32BB-/	.	.	.	.	.	.	.	.	.	.	.	.	.	.	.	.	.	.	.	.
32BB-/	.	8G\	.	16b- 16g\	.	8een\yy	.	8een\	.	8b-\	.	.	.	8b-\	.	.	.	.	.	.
32BB-/	.	.	.	.	.	.	.	.	.	.	.	.	.	.	.	.	.	.	.	.
32BB-/	.	.	.	16b- 16g\	.	.	.	.	.	.	.	.	.	.	.	.	.	.	.	.
32BB-/	.	.	.	.	.	.	.	.	.	.	.	.	.	.	.	.	.	.	.	.
32BB-/	.	8G\	.	16b- 16g\	.	8bb-\yy	.	8bb-\	.	8b-\	.	.	.	8b-\	.	.	.	.	.	.
32BB-/	.	.	.	.	.	.	.	.	.	.	.	.	.	.	.	.	.	.	.	.
32BB-/	.	.	.	16b- 16g\	.	.	.	.	.	.	.	.	.	.	.	.	.	.	.	.
32BB-/	.	.	.	.	.	.	.	.	.	.	.	.	.	.	.	.	.	.	.	.
32BB-/	.	8G\J	.	16b- 16g\	.	8ee\Jyy	.	8ee\J	.	8b-\J	.	.	.	8b-\J	.	.	.	.	.	.
32BB-/	.	.	.	.	.	.	.	.	.	.	.	.	.	.	.	.	.	.	.	.
32BB-/	.	.	.	16b-JJ 16g\	.	.	.	.	.	.	.	.	.	.	.	.	.	.	.	.
32BB-/JJJ	.	.	.	.	.	.	.	.	.	.	.	.	.	.	.	.	.	.	.	.
*Xtremolo	*	*Xtremolo	*	*Xtremolo	*	*	*	*	*	*	*	*	*	*	*	*	*	*	*	*
=8	=8	=8	=8	=8	=8	=8	=8	=8	=8	=8	=8	=8	=8	=8	=8	=8	=8	=8	=8	=8
*	*	*	*	*	*	*	*	*	*	*	*	*	*	*^	*	*	*	*	*	*
!	!	!LO:TX:t=P:problem=mixed beam	!	!LO:TX:t=P:problem=mixed beam	!	!LO:TX:t=P:problem=mixed beam	!	!LO:TX:t=P:problem=mixed beam	!	!	!	!LO:TX:t=P:problem=mixed beam	!	!	!	!	!	!	!	!	!
4F\	.	8.F\L	.	8.aL 8.f\	.	8.ff\Lyy	.	8.ff\L	.	8f/L	.	8.F\L	.	8f/L	8f\L	.	16r	16ryy	.	8.fff\L	.
.	.	.	.	.	.	.	.	.	.	.	.	.	.	.	.	.	16f/LL	16f\LL	.	.	.
.	.	.	.	.	.	.	.	.	.	16r	.	.	.	16r	16ryy	.	16eX/	16e\	.	.	.
.	.	16FF/Jk	.	16F/Jk	.	16fJkyy 16A/yy	.	16fJk 16A/	.	32f/LL	.	16FF/Jk	.	32f/LL	32f\LL	.	16f/JJ	16f\JJ	.	16ff\Jk	.
.	.	.	.	.	.	.	.	.	.	32f/JJJ	.	.	.	32f/JJJ	32f\JJJ	.	.	.	.	.	.
4r	.	4FF/	.	4F/	.	4fyy 4A/yy	.	4f 4A/	.	4f/	.	4FF/	.	4f/	4f\	.	16f#X/LL	16f#\LL	.	4ff\	.
.	.	.	.	.	.	.	.	.	.	.	.	.	.	.	.	.	16g/	16g\	.	.	.
.	.	.	.	.	.	.	.	.	.	.	.	.	.	.	.	.	16a-X/	16a-\	.	.	.
.	.	.	.	.	.	.	.	.	.	.	.	.	.	.	.	.	16a/JJ	16a\JJ	.	.	.
4r	.	4r	.	4r	.	4ryy	.	4r	.	4r	.	4r	.	4r	4ryy	.	16b-/LL	16b-\LL	.	4r	.
.	.	.	.	.	.	.	.	.	.	.	.	.	.	.	.	.	16bX/	16b\	.	.	.
.	.	.	.	.	.	.	.	.	.	.	.	.	.	.	.	.	16cc/	16cc\	.	.	.
!!LO:TX:a:Bi:t=[segno]:problem:znak segno na kresce taktowej w każdym głosie
.	.	.	.	.	.	.	.	.	.	.	.	.	.	.	.	.	16cc#X/JJ	16a\JJ	.	.	.
*	*	*	*	*	*	*	*	*	*	*	*	*	*	*v	*v	*	*	*	*	*	*
*	*	*	*	*	*	*	*	*	*	*	*	*	*	*	*	*v	*v	*	*	*
=9||	=9||	=9||	=9||	=9||	=9||	=9||	=9||	=9||	=9||	=9||	=9||	=9||	=9||	=9||	=9||	=9||	=9||	=9||	=9||
*	*	*	*	*	*	*	*	*	*	*	*	*	*	*	*	*	*	*^	*
*>B	*	*>B	*	*>B	*	*>B	*	*>B	*	*>B	*	*>B	*	*>B	*	*>B	*	*>B	*>B	*
*	*	*	*	*tremolo	*	*tremolo	*	*	*	*	*	*	*	*	*	*	*	*	*	*
!	!	!	!LO:DY:b:rj	!	!LO:DY:b:rj	!	!LO:DY:b:rj	!	!	!	!	!	!LO:DY:b:rj	!	!	!	!	!	!	!
2.r	.	8BB-/	p	(>8B-\L	p	(<8d/L	p	2.r	.	2.r	.	8d 8B-\	p	8dd 8b-\	.	(>16ddLL 16b-^>\	.	(>16dd/LL	16b-\LL	.
.	.	.	.	.	.	.	.	.	.	.	.	.	.	.	.	16ee- 16cc\)	.	16ee-X/)	16cc\	.
.	.	8r	.	8d\	.	8f/	.	.	.	.	.	8r	.	8r	.	16ff 16dd'>\	.	16ff'>/	16dd\	.
.	.	.	.	.	.	.	.	.	.	.	.	.	.	.	.	16ffJJ 16dd'>\	.	16ff'>/JJ	16dd\JJ	.
*	*	*	*	*	*	*	*	*	*	*	*	*	*	*	*	*rep	*	*rep	*rep	*
.	.	8BB-/	.	8B-\	.	8d/	.	.	.	.	.	8d 8B-\	.	8dd 8b-\	.	(>16ddLL 16b-^>\	.	(>16dd/LL	16b-\LL	.
.	.	.	.	.	.	.	.	.	.	.	.	.	.	.	.	16ee- 16cc\)	.	16ee-/)	16cc\	.
.	.	8r	.	8d\	.	8f/	.	.	.	.	.	8r	.	8r	.	16ff 16dd'>\	.	16ff'>/	16dd\	.
.	.	.	.	.	.	.	.	.	.	.	.	.	.	.	.	16ffJJ 16dd'>\	.	16ff'>/JJ	16dd\JJ	.
*	*	*	*	*	*	*	*	*	*	*	*	*	*	*	*	*Xrep	*	*Xrep	*Xrep	*
*	*	*	*	*	*	*	*	*	*	*	*	*	*	*	*	*rep	*	*rep	*rep	*
.	.	8BB-/	.	8B-\	.	8d/	.	.	.	.	.	8d 8B-\	.	8dd 8b-\	.	(>16ddLL 16b-^>\	.	(>16dd/LL	16b-\LL	.
.	.	.	.	.	.	.	.	.	.	.	.	.	.	.	.	16ee- 16cc\)	.	16ee-/)	16cc\	.
.	.	8r	.	8d\J)	.	8f/J)	.	.	.	.	.	8r	.	8r	.	16ff 16dd'>\	.	16ff'>/	16dd\	.
.	.	.	.	.	.	.	.	.	.	.	.	.	.	.	.	16ffJJ 16dd'>\	.	16ff'>/JJ	16dd\JJ	.
*	*	*	*	*	*	*	*	*	*	*	*	*	*	*	*	*Xrep	*	*Xrep	*Xrep	*
=10	=10	=10	=10	=10	=10	=10	=10	=10	=10	=10	=10	=10	=10	=10	=10	=10	=10	=10	=10	=10
!	!	!	!	!	!	!	!	!	!LO:DY:b:rj	!	!	!	!	!	!	!	!	!	!	!
2.r	.	8F\	.	(>8c\L	.	(<8e-/L	.	2.ffM>\	p	2.r	.	8e- 8F\	.	8cc 8f/	.	(>16ccLL 16a^>\	.	(>16cc/LL	16a\LL	.
.	.	.	.	.	.	.	.	.	.	.	.	.	.	.	.	16dd 16b-\)	.	16dd/)	16b-\	.
.	.	8r	.	8e-\	.	8f/	.	.	.	.	.	8r	.	8r	.	16ee- 16cc'>\	.	16ee-'>/	16cc\	.
.	.	.	.	.	.	.	.	.	.	.	.	.	.	.	.	16ee-JJ 16cc'>\	.	16ee-'>/JJ	16cc\JJ	.
*	*	*	*	*	*	*	*	*	*	*	*	*	*	*	*	*rep	*	*rep	*rep	*
.	.	8F\	.	8c\	.	8e-/	.	.	.	.	.	8e- 8F\	.	8cc 8f/	.	(>16ccLL 16a^>\	.	(>16cc/LL	16a\LL	.
.	.	.	.	.	.	.	.	.	.	.	.	.	.	.	.	16dd 16b-\)	.	16dd/)	16b-\	.
.	.	8r	.	8e-\	.	8f/	.	.	.	.	.	8r	.	8r	.	16ee- 16cc'>\	.	16ee-'>/	16cc\	.
.	.	.	.	.	.	.	.	.	.	.	.	.	.	.	.	16ee-JJ 16cc'>\	.	16ee-'>/JJ	16cc\JJ	.
*	*	*	*	*	*	*	*	*	*	*	*	*	*	*	*	*Xrep	*	*Xrep	*Xrep	*
*	*	*	*	*	*	*	*	*	*	*	*	*	*	*	*	*rep	*	*rep	*rep	*
.	.	8F\	.	8c\	.	8e-/	.	.	.	.	.	8e- 8F\	.	8cc 8f/	.	(>16ccLL 16a^>\	.	(>16cc/LL	16a\LL	.
.	.	.	.	.	.	.	.	.	.	.	.	.	.	.	.	16dd 16b-\)	.	16dd/)	16b-\	.
.	.	8r	.	8e-\J)	.	8f/J)	.	.	.	.	.	8r	.	8r	.	16ee- 16cc'>\	.	16ee-'>/	16cc\	.
.	.	.	.	.	.	.	.	.	.	.	.	.	.	.	.	16ee-JJ 16cc'>\	.	16ee-'>/JJ	16cc\JJ	.
*	*	*	*	*	*	*	*	*	*	*	*	*	*	*	*	*Xrep	*	*Xrep	*Xrep	*
=11	=11	=11	=11	=11	=11	=11	=11	=11	=11	=11	=11	=11	=11	=11	=11	=11	=11	=11	=11	=11
.	.	.	.	.	.	.	.	32qqeen/LLL	.	.	.	.	.	.	.	.	.	.	.	.
.	.	.	.	.	.	.	.	32qqff/	.	.	.	.	.	.	.	.	.	.	.	.
!	!	!	!	!	!	!	!	!LO:TX:b:Bi:t=dolce	!	!	!	!	!	!	!	!	!	!	!	!
.	.	.	.	.	.	.	.	32qqgg/JJJ	.	.	.	.	.	.	.	.	.	.	.	.
2.r	.	8BB-/	.	8B-/L	.	8d/L	.	(>4.ff\	.	2.r	.	8d 8B-\	.	8dd 8b-\	.	(>16ddLL 16b-\	.	4dd/	4b-\	.
.	.	.	.	.	.	.	.	.	.	.	.	.	.	.	.	16ee- 16cc\)	.	.	.	.
.	.	8r	.	8d/	.	8f/	.	.	.	.	.	8r	.	8r	.	16ff 16dd'>\	.	.	.	.
.	.	.	.	.	.	.	.	.	.	.	.	.	.	.	.	16ffJJ 16dd'>\	.	.	.	.
*	*	*	*	*	*	*	*	*	*	*	*	*	*	*	*	*rep	*	*	*	*
.	.	8BB-/	.	8B-/	.	8d/	.	.	.	.	.	8d 8B-\	.	8dd 8b-\	.	(>16ddLL 16b-\	.	4r	4ryy	.
.	.	.	.	.	.	.	.	.	.	.	.	.	.	.	.	16ee- 16cc\)	.	.	.	.
.	.	8r	.	8d/	.	8f/	.	8ddd\L	.	.	.	8r	.	8r	.	16ff 16dd'>\	.	.	.	.
.	.	.	.	.	.	.	.	.	.	.	.	.	.	.	.	16ffJJ 16dd'>\	.	.	.	.
*	*	*	*	*	*	*	*	*	*	*	*	*	*	*	*	*Xrep	*	*	*	*
*	*	*	*	*	*	*	*	*	*	*	*	*	*	*	*	*rep	*	*	*	*
.	.	8BB-/	.	8B-/	.	8d/	.	8ccc\	.	.	.	8d 8B-\	.	8dd 8b-\	.	(>16ddLL 16b-\	.	4r	4ryy	.
.	.	.	.	.	.	.	.	.	.	.	.	.	.	.	.	16ee- 16cc\)	.	.	.	.
.	.	8r	.	8d/J	.	8f/J	.	8bb-\J)	.	.	.	8r	.	8r	.	16ff 16dd'>\	.	.	.	.
.	.	.	.	.	.	.	.	.	.	.	.	.	.	.	.	16ffJJ 16dd'>\	.	.	.	.
*	*	*	*	*	*	*	*	*	*	*	*	*	*	*	*	*Xrep	*	*	*	*
*	*	*	*	*	*	*	*	*	*	*	*	*	*	*	*	*	*	*v	*v	*
=12	=12	=12	=12	=12	=12	=12	=12	=12	=12	=12	=12	=12	=12	=12	=12	=12	=12	=12	=12
2.r	.	8F\	.	(<8c/L	.	(<8e-/L	.	(>16aa\LL	.	2.r	.	8e- 8F\	.	8cc 8f/	.	(>16ccLL 16a\	.	2.r	.
.	.	.	.	.	.	.	.	16bb-\)	.	.	.	.	.	.	.	16dd 16b-\)	.	.	.
.	.	8r	.	8e-/	.	8f/	.	16ccc'>\	.	.	.	8r	.	8r	.	16ee- 16cc'>\	.	.	.
.	.	.	.	.	.	.	.	16aa'>\JJ	.	.	.	.	.	.	.	16ee-JJ 16cc'>\	.	.	.
*	*	*	*	*	*	*	*	*	*	*	*	*	*	*	*	*rep	*	*	*
.	.	8F\	.	8c/	.	8e-/	.	4.ff\	.	.	.	8e- 8F\	.	8cc 8f/	.	(>16ccLL 16a\	.	.	.
.	.	.	.	.	.	.	.	.	.	.	.	.	.	.	.	16dd 16b-\)	.	.	.
.	.	8r	.	8e-/	.	8f/	.	.	.	.	.	8r	.	8r	.	16ee- 16cc'>\	.	.	.
.	.	.	.	.	.	.	.	.	.	.	.	.	.	.	.	16ee-JJ 16cc'>\	.	.	.
*	*	*	*	*	*	*	*	*	*	*	*	*	*	*	*	*Xrep	*	*	*
*	*	*	*	*	*	*	*	*	*	*	*	*	*	*	*	*rep	*	*	*
.	.	8F\	.	8c/	.	8e-/	.	.	.	.	.	8e- 8F\	.	8cc 8f/	.	(>16ccLL 16a\	.	.	.
.	.	.	.	.	.	.	.	.	.	.	.	.	.	.	.	16dd 16b-\)	.	.	.
.	.	8r	.	8e-/J)	.	8f/J)	.	8ee-\	.	.	.	8r	.	8r	.	16ee- 16cc'>\	.	.	.
.	.	.	.	.	.	.	.	.	.	.	.	.	.	.	.	16ee-JJ 16cc'>\	.	.	.
*	*	*	*	*	*	*	*	*	*	*	*	*	*	*	*	*Xrep	*	*	*
=13	=13	=13	=13	=13	=13	=13	=13	=13	=13	=13	=13	=13	=13	=13	=13	=13	=13	=13	=13
2.r	.	8BB-/	.	8B-/L	.	8d/L	.	(>16dd\LL	.	2.r	.	8d 8B-\	.	8dd 8b-\	.	(>16ddLL 16b-\	.	2.r	.
.	.	.	.	.	.	.	.	16ee-\	.	.	.	.	.	.	.	16ee- 16cc\)	.	.	.
.	.	8r	.	8d/	.	8f/	.	16ff\	.	.	.	8r	.	8r	.	16ff 16dd'>\	.	.	.
.	.	.	.	.	.	.	.	16gg\JJ	.	.	.	.	.	.	.	16ffJJ 16dd'>\	.	.	.
*	*	*	*	*	*	*	*	*	*	*	*	*	*	*	*	*rep	*	*	*
.	.	8BB-/	.	8B-/	.	8d/	.	8ff\L)	.	.	.	8d 8B-\	.	8dd 8b-\	.	(>16ddLL 16b-\	.	.	.
.	.	.	.	.	.	.	.	.	.	.	.	.	.	.	.	16ee- 16cc\)	.	.	.
.	.	8r	.	8d/	.	8f/	.	(>8ddd\	.	.	.	8r	.	8r	.	16ff 16dd'>\	.	.	.
.	.	.	.	.	.	.	.	.	.	.	.	.	.	.	.	16ffJJ 16dd'>\	.	.	.
*	*	*	*	*	*	*	*	*	*	*	*	*	*	*	*	*Xrep	*	*	*
*	*	*	*	*	*	*	*	*	*	*	*	*	*	*	*	*rep	*	*	*
.	.	8BB-/	.	8B-/	.	8d/	.	8ccc\	.	.	.	8d 8B-\	.	8dd 8b-\	.	(>16ddLL 16b-\	.	.	.
.	.	.	.	.	.	.	.	.	.	.	.	.	.	.	.	16ee- 16cc\)	.	.	.
.	.	8r	.	8d/J	.	8f/J	.	8bb-\J)	.	.	.	8r	.	8r	.	16ff 16dd'>\	.	.	.
.	.	.	.	.	.	.	.	.	.	.	.	.	.	.	.	16ffJJ 16dd'>\	.	.	.
*	*	*	*	*	*	*	*	*	*	*	*	*	*	*	*	*Xrep	*	*	*
=14	=14	=14	=14	=14	=14	=14	=14	=14	=14	=14	=14	=14	=14	=14	=14	=14	=14	=14	=14
2.r	.	8F\	.	(>8c\L	.	(<8e-/L	.	(>16aa\LL	.	2.r	.	8e- 8F\	.	8cc 8f/	.	(>16ccLL 16a\	.	2.r	.
.	.	.	.	.	.	.	.	16bb-\)	.	.	.	.	.	.	.	16dd 16b-\)	.	.	.
.	.	8r	.	8e-\	.	8f/	.	16ccc'>\	.	.	.	8r	.	8r	.	16ee- 16cc'>\	.	.	.
.	.	.	.	.	.	.	.	16aa'>\JJ	.	.	.	.	.	.	.	16ee-JJ 16cc'>\	.	.	.
*	*	*	*	*	*	*	*	*	*	*	*	*	*	*	*	*rep	*	*	*
.	.	8F\	.	8c\	.	8e-/	.	4.ff\	.	.	.	8e- 8F\	.	8cc 8f/	.	(>16ccLL 16a\	.	.	.
.	.	.	.	.	.	.	.	.	.	.	.	.	.	.	.	16dd 16b-\)	.	.	.
.	.	8r	.	8e-\	.	8f/	.	.	.	.	.	8r	.	8r	.	16ee- 16cc'>\	.	.	.
.	.	.	.	.	.	.	.	.	.	.	.	.	.	.	.	16ee-JJ 16cc'>\	.	.	.
*	*	*	*	*	*	*	*	*	*	*	*	*	*	*	*	*Xrep	*	*	*
*	*	*	*	*	*	*	*	*	*	*	*	*	*	*	*	*rep	*	*	*
.	.	8F\	.	8c\	.	8e-/	.	.	.	.	.	8e- 8F\	.	8cc 8f/	.	(>16ccLL 16a\	.	.	.
.	.	.	.	.	.	.	.	.	.	.	.	.	.	.	.	16dd 16b-\)	.	.	.
.	.	8r	.	8e-\J)	.	8f/J)	.	8ee-\	.	.	.	8r	.	8r	.	16ee- 16cc'>\	.	.	.
.	.	.	.	.	.	.	.	.	.	.	.	.	.	.	.	16ee-JJ 16cc'>\	.	.	.
*	*	*	*	*	*	*	*	*	*	*	*	*	*	*	*	*Xrep	*	*	*
*	*	*	*	*Xtremolo	*	*Xtremolo	*	*	*	*	*	*	*	*	*	*	*	*	*
!!LO:PB:g=original
=15	=15	=15	=15	=15	=15	=15	=15	=15	=15	=15	=15	=15	=15	=15	=15	=15	=15	=15	=15
*	*	*	*	*	*	*	*	*	*	*	*	*	*	*^	*	*	*	*	*
!	!	!	!	!	!	!	!	!	!	!	!	!LO:TX:t=P:problem=mixed beam	!	!	!	!	!	!	!	!
!	!LO:DY:b:rj	!	!LO:DY:b:rj	!	!LO:DY:b:rj	!	!LO:DY:b:rj	!	!LO:DY:b:rj	!	!LO:DY:b:rj	!	!LO:DY:b:rj	!	!	!	!	!LO:DY:b:rj	!	!LO:DY:b:rj
4BB-/	ff	8BB-/	ff	8b- 8d 8B-\	ff	(>16b-\LL	rfz	(>16dd\LL	rfz	8b-\L	f	8BB-/L	f	8b-/L	8b-\L	.	8ddL 8b-\	f	(>16bb-LL 16dd\	sf
.	.	.	.	.	.	16cc\)	.	16ee-\)	.	.	.	.	.	.	.	.	.	.	16ccc 16ee-\)	.
.	.	8r	.	8r	.	16dd'>\	.	16ff'>\	.	16b-\L	.	8B-\	.	16b-/L	16b-\L	.	8ddJ 8b-\	.	16ddd 16ff'>\	.
.	.	.	.	.	.	16dd'>\JJ	.	16ff'>\JJ	.	16b-\JJ	.	.	.	16b-/JJ	16b-\JJ	.	.	.	16dddJJ 16ff'>\	.
*	*	*	*	*	*	*rep	*	*rep	*	*	*	*	*	*	*	*	*	*	*rep	*
4BB-/	.	8B-\	.	8b- 8d 8B-\	.	(>16b-\LL	rfz	(>16dd\LL	rfz	8b-\L	.	8BB-/	.	8b-/L	8b-\L	.	8r	.	(>16bb-LL 16dd\	.
.	.	.	.	.	.	16cc\)	.	16ee-\)	.	.	.	.	.	.	.	.	.	.	16ccc 16ee-\)	.
.	.	8r	.	8r	.	16dd'>\	.	16ff'>\	.	16b-\L	.	8B-\	.	16b-/L	16b-\L	.	8dd 8b-\	.	16ddd 16ff'>\	.
.	.	.	.	.	.	16dd'>\JJ	.	16ff'>\JJ	.	16b-\JJ	.	.	.	16b-/JJ	16b-\JJ	.	.	.	16dddJJ 16ff'>\	.
*	*	*	*	*	*	*Xrep	*	*Xrep	*	*	*	*	*	*	*	*	*	*	*Xrep	*
*	*	*	*	*	*	*rep	*	*rep	*	*	*	*	*	*	*	*	*	*	*rep	*
4BB-/	.	8BB-/	.	8b- 8d 8B-\	.	(>16b-\LL	rfz	(>16dd\LL	rfz	8b-\L	.	8BB-/	.	8b-/L	8b-\L	.	8r	.	(>16bb-LL 16dd\	.
.	.	.	.	.	.	16cc\)	.	16ee-\)	.	.	.	.	.	.	.	.	.	.	16ccc 16ee-\)	.
.	.	8r	.	8r	.	16dd'>\	.	16ff'>\	.	8b-\J	.	8B-\J	.	8b-/J	8b-\J	.	8dd 8b-\	.	16ddd 16ff'>\	.
.	.	.	.	.	.	16dd'>\JJ	.	16ff'>\JJ	.	.	.	.	.	.	.	.	.	.	16dddJJ 16ff'>\	.
*	*	*	*	*	*	*Xrep	*	*Xrep	*	*	*	*	*	*	*	*	*	*	*Xrep	*
*	*	*	*	*	*	*	*	*	*	*	*	*	*	*v	*v	*	*	*	*	*
=16	=16	=16	=16	=16	=16	=16	=16	=16	=16	=16	=16	=16	=16	=16	=16	=16	=16	=16	=16
*	*	*	*	*	*	*	*	*	*	*	*	*tremolo	*	*	*	*	*	*	*
!	!	!	!	!	!	!	!	!	!	!	!	!	!	!	!	!	!LO:DY:b:rj	!	!LO:DY:b:rj
4BB-/	.	8E-\	.	8g 8B- 8E-/	.	(>16ee-\LL	rfz	(>16gg\LL	rfz	8r	.	8E-\L	.	8r	.	8ggL 8b-\	sf	(>16ggLL 16ee-\	sf
.	.	.	.	.	.	16ff\)	.	16aa\)	.	.	.	.	.	.	.	.	.	16aa 16ff\)	.
.	.	8r	.	8r	.	16gg'>\	.	16bb-'>\	.	16b-\LL	.	8e-\	.	16b-/LL	.	8ggJ 8b-\	.	16bb- 16gg'>\	.
.	.	.	.	.	.	16gg'>\JJ	.	16bb-'>\JJ	.	16b-\JJ	.	.	.	16b-/JJ	.	.	.	16bb-JJ 16gg'>\	.
*	*	*	*	*	*	*rep	*	*rep	*	*	*	*	*	*	*	*	*	*rep	*
4r	.	8E-\	.	8g 8B- 8E-/	.	(>16ee-\LL	rfz	(>16gg\LL	rfz	8b-\L	.	8E-\	.	8b-/L	.	8r	.	(>16ggLL 16ee-\	.
.	.	.	.	.	.	16ff\)	.	16aa\)	.	.	.	.	.	.	.	.	.	16aa 16ff\)	.
.	.	8r	.	8r	.	16gg'>\	.	16bb-'>\	.	16b-\L	.	8e-\	.	16b-/L	.	8gg 8ee-\	.	16bb- 16gg'>\	.
.	.	.	.	.	.	16gg'>\JJ	.	16bb-'>\JJ	.	16b-\JJ	.	.	.	16b-/JJ	.	.	.	16bb-JJ 16gg'>\	.
*	*	*	*	*	*	*Xrep	*	*Xrep	*	*	*	*	*	*	*	*	*	*Xrep	*
*	*	*	*	*	*	*rep	*	*rep	*	*	*	*	*	*	*	*	*	*rep	*
4r	.	8E-\	.	8g 8B- 8E-/	.	(>16ee-\LL	rfz	(>16gg\LL	rfz	8b-\L	.	8E-\	.	8b-/L	.	8r	.	(>16ggLL 16ee-\	.
.	.	.	.	.	.	16ff\)	.	16aa\)	.	.	.	.	.	.	.	.	.	16aa 16ff\)	.
.	.	8r	.	8r	.	16gg'>\	.	16bb-'>\	.	8b-\J	.	8e-\J	.	8b-/J	.	8gg 8ee-\	.	16bb- 16gg'>\	.
.	.	.	.	.	.	16gg'>\JJ	.	16bb-'>\JJ	.	.	.	.	.	.	.	.	.	16bb-JJ 16gg'>\	.
*	*	*	*	*	*	*Xrep	*	*Xrep	*	*	*	*	*	*	*	*	*	*Xrep	*
*	*	*	*	*	*	*	*	*	*	*	*	*Xtremolo	*	*	*	*	*	*	*
=17	=17	=17	=17	=17	=17	=17	=17	=17	=17	=17	=17	=17	=17	=17	=17	=17	=17	=17	=17
!	!	!	!	!	!	!	!	!	!	!	!	!	!	!	!	!	!LO:DY:b:rj	!	!
4r	.	8C\	.	8cc 8e- 8G 8C/	.	(>16ee-\LL	.	(>16ccc\LL	.	8r	.	8C\L	.	8r	.	8cccL 8ee-\	sf	(>16cccLL 16ee-\	.
.	.	.	.	.	.	16ff\)	.	16ddd\)	.	.	.	.	.	.	.	.	.	16ddd 16ff\)	.
.	.	8r	.	8r	.	16gg'>\	.	16eee-'>\	.	16cc\LL	.	8c\	.	16cc\LL	.	8cccJ 8ee-\	.	16eee- 16gg'>\	.
.	.	.	.	.	.	16gg'>\JJ	.	16eee-'>\JJ	.	16cc\JJ	.	.	.	16cc\JJ	.	.	.	16eee-JJ 16gg'>\	.
4r	.	8C\	.	8cc 8e- 8G 8C/	.	(>16gg\LL	.	(>16eee-\LL	.	8cc\L	.	8C\	.	8cc\L	.	8r	.	16eee-LL 16gg\	.
.	.	.	.	.	.	16ff\)	.	16ddd\)	.	.	.	.	.	.	.	.	.	16ddd 16ff'\	.
.	.	8r	.	8r	.	16ee-'>\	.	16ccc'>\	.	8cc\J	.	8c\J	.	8cc\J	.	16cccLL 16ee-\	.	16ccc 16ee-\	.
.	.	.	.	.	.	16dd'>\JJ	.	16bb-'>\JJ	.	.	.	.	.	.	.	16bb-JJ 16dd\	.	16bb-JJ 16dd\	.
!	!	!	!	!	!	!	!	!	!	!	!	!LO:TX:t=P:problem=mixed beam	!	!	!	!	!	!	!
4F\	.	8F\	.	8a 8e- 8c 8F/	.	16cc'>\LL	.	16aa'>\LL	.	8f/L	.	8FF/L	.	8ccL 8f\	.	16aaLL 16cc\	.	16aaLL 16cc\	.
.	.	.	.	.	.	16ee-'>\	.	16gg'>\	.	.	.	.	.	.	.	16gg 16ee-\	.	16gg 16ee-\	.
.	.	8r	.	8r	.	16dd'>\	.	16ff'>\	.	8f/J	.	8F\J	.	8ccJ 8f\	.	16ff 16dd\	.	16ff 16dd\	.
.	.	.	.	.	.	16cc'>\JJ	.	16ee-'>\JJ	.	.	.	.	.	.	.	16ee-JJ 16cc\	.	16ee-JJ 16cc\	.
=18	=18	=18	=18	=18	=18	=18	=18	=18	=18	=18	=18	=18	=18	=18	=18	=18	=18	=18	=18
8BB-/L	.	8BB-/L	.	(>16b-\LL	.	(>16b-\LL	.	(>16dd\LL	.	8b-/L	.	8BB-/L	.	8ddL 8b-\	.	16ddLL 16b-\	.	(>16ddLL 16b-\	.
.	.	.	.	16d\)	.	16dd\)	.	16ff\)	.	.	.	.	.	.	.	16ff 16dd\	.	16ff 16dd\)	.
8F/J	.	8F/J	.	16f'>\	.	16cc'>\	.	16ee-'>\	.	16f/L	.	8F/J	.	8ccJ 8f\	.	16ee- 16cc'>\	.	16aa 16cc'>\	.
.	.	.	.	16e-'>\JJ	.	16a'>\JJ	.	16cc'>\JJ	.	16f/JJ	.	.	.	.	.	16ccJJ 16a'>\	.	16cccJJ 16ee-'>\	.
8r	.	8r	.	(>4e-\	.	(>4a\	.	(>4cc\	.	8f/L	.	8r	.	4cc 4f/	.	(>4cc 4a\	.	(>4ccc 4ee-\	.
8F\	.	8FF/	.	.	.	.	.	.	.	8f/J	.	8FF/	.	.	.	.	.	.	.
!LO:TX:t=P:problem=w źrodle nie do końca widoczna nuta	!	!	!	!	!	!	!	!	!	!	!	!	!	!	!	!	!	!	!
4BB-/	.	4BB-/	.	8d\)	.	8b-\)	.	8b-\)	.	4B-/	.	4BB-/	.	8b- 8d/	.	8b-\)	.	8bb- 8dd\)	.
.	.	.	.	8r	.	8r	.	8r	.	.	.	.	.	8r	.	8r	.	8r	.
=19:|!|:	=19:|!|:	=19:|!|:	=19:|!|:	=19:|!|:	=19:|!|:	=19:|!|:	=19:|!|:	=19:|!|:	=19:|!|:	=19:|!|:	=19:|!|:	=19:|!|:	=19:|!|:	=19:|!|:	=19:|!|:	=19:|!|:	=19:|!|:	=19:|!|:	=19:|!|:
*>C	*	*>C	*	*>C	*	*>C	*	*>C	*	*>C	*	*>C	*	*>C	*	*>C	*	*>C	*
*	*	*tremolo	*	*tremolo	*	*tremolo	*	*	*	*	*	*	*	*	*	*	*	*	*
!	!	!	!	!	!	!	!	!	!	!	!	!LO:TX:t=P:problem=w żródle omyłkowo zamieniona pięciolinia fagotów i trąbek	!	!	!	!	!	!	!
!	!	!	!	!	!	!	!	!	!	!LO:TX:a:Bi:t=Tromba	!	!LO:TX:a:Bi:t=Fagotti	!	!	!	!	!	!LO:TX:a:Bi:t=Solo	!
!	!	!	!LO:DY:b:rj	!	!LO:DY:b:rj	!	!LO:DY:b:rj	!	!	!	!	!	!	!	!	!	!	!	!
2.r	.	8G\L	sfp	8g\L	sfp	8b-L 8d/	sfp	8dd\	.	2.r	.	2.r	.	2.r	.	2.r	.	8dd\	.
.	.	8G\	.	8g\	.	8b- 8d/	.	(>4dd\	sf	.	.	.	.	.	.	.	.	4dd\	.
.	.	8G\	.	8g\	.	8b- 8d/	.	.	.	.	.	.	.	.	.	.	.	.	.
!	!	!	!	!	!	!	!	!	!	!	!	!	!	!	!	!	!	!	!LO:DY:b:rj
.	.	8G\	.	8g\	.	8b- 8d/	.	8gg\L	.	.	.	.	.	.	.	.	.	8gg\L	sf
.	.	.	.	.	.	.	.	16qqbb-/	.	.	.	.	.	.	.	.	.	16qqbb-/	.
.	.	8G\	.	8g\	.	8b- 8d/	.	8aa\	.	.	.	.	.	.	.	.	.	8aa\	.
.	.	8G\J	.	8g\J	.	8b-J 8d/	.	8gg\J)	.	.	.	.	.	.	.	.	.	8gg\J	.
=20	=20	=20	=20	=20	=20	=20	=20	=20	=20	=20	=20	=20	=20	=20	=20	=20	=20	=20	=20
*	*	*	*	*	*	*	*	*	*	*	*	*	*	*	*	*^	*	*	*
!	!	!	!	!	!	!	!	!	!	!	!	!	!	!	!	!	!	!	!LO:TX:a:Bi:t=Col V&colon; 1.	!
!	!	!	!LO:DY:b:rj	!	!LO:DY:b:rj	!	!LO:DY:b:rj	!	!	!	!	!	!	!	!	!	!	!	!	!
2.r	.	8A\L	sfp	8a\L	sfp	8ccL 8d/	sfp	8.ggM>\L	.	2.r	.	4r	.	2.r	.	4r	4ryy	.	8.ggM\Lyy	.
.	.	8A\	.	8a\	.	8cc 8d/	.	.	.	.	.	.	.	.	.	.	.	.	.	.
.	.	.	.	.	.	.	.	32ff#X\LL	.	.	.	.	.	.	.	.	.	.	32ff#X\LLyy	.
.	.	.	.	.	.	.	.	32gg\JJJ	.	.	.	.	.	.	.	.	.	.	32gg\JJJyy	.
.	.	8A\	.	8a\	.	8cc 8d/	.	4ff#\	.	.	.	8r	.	.	.	8r	8ryy	.	4ff#\yy	.
.	.	8A\	.	8a\	.	8cc 8d/	.	.	.	.	.	(>8d\L	<	.	.	8dd/L	8dd\L	<	.	.
.	.	8A\	.	8a\	.	8cc 8d/	.	8r	.	.	.	8e-\	[ >	.	.	8ee-/	8ee-\	[ >	8ryy	.
.	.	8A\J	.	8a\J	.	8ccJ 8d/	.	(>8ff#X\	.	.	.	8d\J)	]	.	.	8dd/J	8dd\J	]	(y>8ff#X\yy	.
*	*	*	*	*	*	*	*	*	*	*	*	*	*	*	*	*v	*v	*	*	*
=21	=21	=21	=21	=21	=21	=21	=21	=21	=21	=21	=21	=21	=21	=21	=21	=21	=21	=21	=21
!	!	!	!	!	!	!	!	!	!	!	!	!	!	!	!	!	!	!LO:TX:b:Bi:t=ten	!
!	!	!	!LO:DY:b:rj	!	!LO:DY:b:rj	!	!LO:DY:b:rj	!	!	!	!	!	!	!	!	!	!	!	!
2.r	.	8F#X\L	sfp	8a\L	sfp	8ccL 8d/	sfp	[>4ccc\)	.	2.r	.	2.r	.	2.r	.	2.r	.	[>4ccc\)	.
.	.	8F#\	.	8a\	.	8cc 8d/	.	.	.	.	.	.	.	.	.	.	.	.	.
.	.	8F#\	.	8a\	.	8cc 8d/	.	(>16ccc\LL]	.	.	.	.	.	.	.	.	.	16ccc\LL]	.
.	.	.	.	.	.	.	.	16aa\	.	.	.	.	.	.	.	.	.	16aa\	.
.	.	8F#\	.	8a\	.	8cc 8d/	.	16ff#X\	.	.	.	.	.	.	.	.	.	16ff#X\	.
.	.	.	.	.	.	.	.	16dd\JJ)	.	.	.	.	.	.	.	.	.	16dd\JJ	.
.	.	8F#\	.	8a\	.	8cc 8d/	.	(>8.ee-\L	sf	.	.	.	.	.	.	.	.	8.eee-\L	sf
.	.	8F#\J	.	8a\J	.	8ccJ 8d/	.	.	.	.	.	.	.	.	.	.	.	.	.
.	.	.	.	.	.	.	.	16ddn\Jk)	.	.	.	.	.	.	.	.	.	16ddd\Jk	.
=22	=22	=22	=22	=22	=22	=22	=22	=22	=22	=22	=22	=22	=22	=22	=22	=22	=22	=22	=22
*	*	*	*	*	*	*	*	*	*	*	*	*	*	*	*	*^	*	*	*
!	!	!	!LO:DY:b:rj	!	!LO:DY:b:rj	!	!LO:DY:b:rj	!	!	!	!	!	!	!	!	!	!	!	!	!
2.r	.	8G\L	sfp	8g\L	sfp	8b-L 8d/	sfp	(>8.dd^<\L	.	2.r	.	4r	.	2.r	.	4r	4ryy	.	(>8.ddd^<\L	.
.	.	8G\	.	8g\	.	8b- 8d/	.	.	.	.	.	.	.	.	.	.	.	.	.	.
.	.	.	.	.	.	.	.	32cc\LL	.	.	.	.	.	.	.	.	.	.	16ccc\Jk)	.
.	.	.	.	.	.	.	.	32b-\JJJ	.	.	.	.	.	.	.	.	.	.	.	.
.	.	8G\	.	8g\	.	8b- 8d/	.	4b-\)	.	.	.	8r	.	.	.	8r	8ryy	.	4bb-\	.
.	.	8G\	.	8g\	.	8b- 8d/	.	.	.	.	.	(>8d\L	<	.	.	8dd/L	8dd\L	<	.	.
.	.	8G\	.	8g\	.	8b- 8d/	.	4r	.	.	.	8e-\	[ >	.	.	8ee-/	8ee-\	[ >	4r	.
.	.	8G\J	.	8g\J	.	8b-J 8d/	.	.	.	.	.	8d\J)	]	.	.	8dd/J	8dd\J	]	.	.
*	*	*Xtremolo	*	*Xtremolo	*	*Xtremolo	*	*	*	*	*	*	*	*	*	*	*	*	*	*
*	*	*	*	*	*	*	*	*	*	*	*	*	*	*	*	*v	*v	*	*	*
=23	=23	=23	=23	=23	=23	=23	=23	=23	=23	=23	=23	=23	=23	=23	=23	=23	=23	=23	=23
!	!	!	!	!	!	!LO:TX:a:Bi:t=Unis	!	!	!	!	!	!	!	!	!	!	!	!	!
!	!LO:DY:b:rj	!	!LO:DY:b:rj	!	!LO:DY:b:rj	!	!LO:DY:b:rj	!	!LO:DY:b:rj	!	!LO:DY:a:rj	!	!LO:DY:b:rj	!	!LO:DY:b:rj	!	!LO:DY:b:rj	!	!LO:DY:b:rj
8BB-/L	ff	8E-\L	ff	8gL 8B- 8E-/	ff	8ggLyy 8b-yy 8e-\yy	ffy	8ggL 8b- 8e-\	ff	8b-\L	ff	8e-L 8E-\	ff	8b-\L	ff	8ggL 8b-\	ff	8gggL 8bb-\	ff
8BB-/J	.	8E-\J	.	8gJ 8B- 8E-/	.	8ggJyy 8b-yy 8e-\yy	.	8ggJ 8b- 8e-\	.	8b-\J	.	8e-J 8E-\	.	8b-\J	.	8ggJ 8b-\	.	8gggJ 8bb-\	.
4r	.	4r	.	4r	.	16bb-\LLyy	.	16bb-\LL	.	4r	.	4r	.	4r	.	4r	.	4r	.
.	.	.	.	.	.	16gg\yy	.	16gg\	.	.	.	.	.	.	.	.	.	.	.
.	.	.	.	.	.	16ee-\yy	.	16ee-\	.	.	.	.	.	.	.	.	.	.	.
.	.	.	.	.	.	16b-\JJyy	.	16b-\JJ	.	.	.	.	.	.	.	.	.	.	.
4r	.	4r	.	4r	.	16g/LLyy	.	16g/LL	.	4r	.	4r	.	4r	.	4r	.	4r	.
.	.	.	.	.	.	16e-/yy	.	16e-/	.	.	.	.	.	.	.	.	.	.	.
.	.	.	.	.	.	16B-/yy	.	16B-/	.	.	.	.	.	.	.	.	.	.	.
.	.	.	.	.	.	16G/JJyy	.	16G/JJ	.	.	.	.	.	.	.	.	.	.	.
!!LO:PB:g=original
=24	=24	=24	=24	=24	=24	=24	=24	=24	=24	=24	=24	=24	=24	=24	=24	=24	=24	=24	=24
*	*	*	*	*	*	*	*	*	*	*	*	*	*	*^	*	*	*	*	*
!	!	!	!	!	!	!	!	!	!	!LO:TX:a:Bi:t=Tr&colon;	!	!LO:TX:a:Bi:t=Fag&colon;	!	!	!	!	!	!	!	!
!	!LO:DY:b:rj	!	!LO:DY:b:rj	!	!LO:DY:b:rj	!	!LO:DY:b:rj	!	!LO:DY:b:rj	!	!LO:DY:b:rj	!	!LO:DY:b:rj	!	!	!LO:DY:b:rj	!	!LO:DY:b:rj	!	!LO:DY:b:rj
8BB-/L	ff	8D\L	ff	8gL 8B- 8D/	ff	8ggLyy 8b-yy 8d\yy	ffyy	8ggL 8b- 8d\	ff	8b-\L	ff	8dL 8D\	ff	8b-/L	8b-\L	ff	8ggL 8b-\	ff	8gggL 8bb-\	ff
8BB-/J	.	8D\J	.	8gJ 8B- 8D/	.	8ggJyy 8b-yy 8d\yy	.	8ggJ 8b- 8d\	.	8b-\J	.	8dJ 8D\	.	8b-/J	8b-\J	.	8ggJ 8b-\	.	8gggJ 8bb-\	.
4r	.	4r	.	4r	.	16bb-\LLyy	.	16bb-\LL	.	4r	.	4r	.	4r	4ryy	.	4r	.	4r	.
.	.	.	.	.	.	16gg\yy	.	16gg\	.	.	.	.	.	.	.	.	.	.	.	.
.	.	.	.	.	.	16dd\yy	.	16dd\	.	.	.	.	.	.	.	.	.	.	.	.
.	.	.	.	.	.	16b-\JJyy	.	16b-\JJ	.	.	.	.	.	.	.	.	.	.	.	.
4r	.	4r	.	4r	.	16g/LLyy	.	16g/LL	.	4r	.	4r	.	4r	4ryy	.	4r	.	4r	.
.	.	.	.	.	.	16d/yy	.	16d/	.	.	.	.	.	.	.	.	.	.	.	.
.	.	.	.	.	.	16B-/yy	.	16B-/	.	.	.	.	.	.	.	.	.	.	.	.
.	.	.	.	.	.	16G/JJyy	.	16G/JJ	.	.	.	.	.	.	.	.	.	.	.	.
=25	=25	=25	=25	=25	=25	=25	=25	=25	=25	=25	=25	=25	=25	=25	=25	=25	=25	=25	=25	=25
!	!LO:DY:b:rj	!	!LO:DY:b:rj	!	!LO:DY:b:rj	!	!LO:DY:b:rj	!	!LO:DY:b:rj	!	!LO:DY:b:rj	!	!LO:DY:b:rj	!	!	!LO:DY:b:rj	!	!LO:DY:b:rj	!	!LO:DY:b:rj
8BB-/L	ff	8C#X/L	ff	8gL 8B- 8C#X/	ff	8ggLyy 8een\yy	ffyy	8ggL 8een\	ff	8b-\L	ff	8c#XL 8C#X\	ff	8b-/L	8b-\L	ff	8ggL 8b-\	ff	8gggL 8bb-\	ff
8BB-/J	.	8C#/J	.	8gJ 8B- 8C#/	.	8ggJyy 8ee\yy	.	8ggJ 8ee\	.	8b-\J	.	8c#J 8C#\	.	8b-/J	8b-\J	.	8ggJ 8b-\	.	8gggJ 8bb-\	.
4r	.	4r	.	4r	.	16bb-\LLyy	.	16bb-\LL	.	4r	.	4r	.	4r	4ryy	.	4r	.	4r	.
.	.	.	.	.	.	16gg\yy	.	16gg\	.	.	.	.	.	.	.	.	.	.	.	.
.	.	.	.	.	.	16een\yy	.	16een\	.	.	.	.	.	.	.	.	.	.	.	.
.	.	.	.	.	.	16ccn\JJyy	.	16ccn\JJ	.	.	.	.	.	.	.	.	.	.	.	.
4r	.	4r	.	4r	.	16b-/LLyy	.	16b-/LL	.	4r	.	4r	.	4r	4ryy	.	4r	.	4r	.
.	.	.	.	.	.	16g/yy	.	16g/	.	.	.	.	.	.	.	.	.	.	.	.
.	.	.	.	.	.	16en/yy	.	16en/	.	.	.	.	.	.	.	.	.	.	.	.
.	.	.	.	.	.	16c#X/JJyy	.	16c#X/JJ	.	.	.	.	.	.	.	.	.	.	.	.
=26	=26	=26	=26	=26	=26	=26	=26	=26	=26	=26	=26	=26	=26	=26	=26	=26	=26	=26	=26	=26
*	*	*	*	*	*	*	*	*	*	*	*	*	*	*	*	*	*	*	*^	*
*	*	*	*	*tremolo	*	*	*	*	*	*	*	*	*	*	*	*	*	*	*	*	*
2.r	.	8D/L	.	16f#XLL 16A\	.	16d/LL	.	8d/	.	8dd\L	.	4d 4D\	.	8dd/L	8dd\L	.	2.ff#X 2.dd\	.	2.fff#X/	2.aa\	.
.	.	.	.	16f# 16A\	.	16a 16f#X/	.	.	.	.	.	.	.	.	.	.	.	.	.	.	.
!	!	!	!	!	!	!	!	!	!LO:DY:b:rj	!	!	!	!	!	!	!	!	!	!	!	!
.	.	8AA/	.	16f# 16A\	.	16a 16f#/	.	4aa\	sf	16dd\L	.	.	.	16dd/L	16dd\L	.	.	.	.	.	.
.	.	.	.	16f# 16A\	.	16aJJ 16f#/	.	.	.	16dd\JJ	.	.	.	16dd/JJ	16dd\JJ	.	.	.	.	.	.
*	*	*	*	*	*	*tremolo	*	*	*	*	*	*	*	*	*	*	*	*	*	*	*
.	.	8D/	.	16f# 16A\	.	16aLL 16f#/	.	.	.	4dd\	.	4r	.	4dd/	4dd\	.	.	.	.	.	.
.	.	.	.	16f# 16A\	.	16a 16f#/	.	.	.	.	.	.	.	.	.	.	.	.	.	.	.
.	.	8AA/	.	16f# 16A\	.	16a 16f#/	.	(>16ff#X\LL	.	.	.	.	.	.	.	.	.	.	.	.	.
.	.	.	.	16f# 16A\	.	16aJJ 16f#/	.	16ddd\JJ)	.	.	.	.	.	.	.	.	.	.	.	.	.
*	*	*	*	*	*	*	*	*	*	*	*	*clefC4	*	*	*	*	*	*	*	*	*
.	.	8D/	.	16f# 16A\	.	16aLL 16f#/	.	8aa'>\L	.	4r	.	8f#XL 8d\	.	4r	4ryy	.	.	.	.	.	.
.	.	.	.	16f# 16A\	.	16a 16f#/	.	.	.	.	.	.	.	.	.	.	.	.	.	.	.
.	.	8AA/J	.	16f# 16A\	.	16a 16f#/	.	(>16bbn\L	.	.	.	8f#J 8d\	.	.	.	.	.	.	.	.	.
.	.	.	.	16f#JJ 16A\	.	16aJJ 16f#/	.	16aa\JJ)	.	.	.	.	.	.	.	.	.	.	.	.	.
*	*	*	*	*	*	*	*	*	*	*	*	*	*	*v	*v	*	*	*	*	*	*
=27	=27	=27	=27	=27	=27	=27	=27	=27	=27	=27	=27	=27	=27	=27	=27	=27	=27	=27	=27	=27
*	*	*tremolo	*	*	*	*	*	*	*	*	*	*	*	*	*	*	*	*	*	*
2.r	.	8C#X/L	.	16enLL 16A\	.	16aLL 16g/	.	(>16aa\LL	.	2.r	.	2.g 2.en\	.	2.r	.	2.gg 2.eeX\	.	2.ggg/	2.aa\	.
.	.	.	.	16e 16A\	.	16a 16g/	.	16gg\)	.	.	.	.	.	.	.	.	.	.	.	.
.	.	8AA/	.	16e 16A\	.	16a 16g/	.	16een'>\	.	.	.	.	.	.	.	.	.	.	.	.
.	.	.	.	16e 16A\	.	16a 16g/	.	16cc#X'>\JJ	.	.	.	.	.	.	.	.	.	.	.	.
.	.	8C#/	.	16e 16A\	.	16a 16g/	.	4.a\	.	.	.	.	.	.	.	.	.	.	.	.
.	.	.	.	16e 16A\	.	16a 16g/	.	.	.	.	.	.	.	.	.	.	.	.	.	.
.	.	8AA/	.	16e 16A\	.	16a 16g/	.	.	.	.	.	.	.	.	.	.	.	.	.	.
.	.	.	.	16e 16A\	.	16a 16g/	.	.	.	.	.	.	.	.	.	.	.	.	.	.
.	.	8C#/	.	16e 16A\	.	16a 16g/	.	.	.	.	.	.	.	.	.	.	.	.	.	.
.	.	.	.	16e 16A\	.	16a 16g/	.	.	.	.	.	.	.	.	.	.	.	.	.	.
.	.	8AA/J	.	16e 16A\	.	16a 16g/	.	8gg\	.	.	.	.	.	.	.	.	.	.	.	.
.	.	.	.	16eJJ 16A\	.	16aJJ 16g/	.	.	.	.	.	.	.	.	.	.	.	.	.	.
=28	=28	=28	=28	=28	=28	=28	=28	=28	=28	=28	=28	=28	=28	=28	=28	=28	=28	=28	=28	=28
2.r	.	8D/L	.	16f#XLL 16A\	.	16aLL 16f#X/	.	(>16ff#X\LL	.	8dd\L	.	2.f#X 2.d\	.	8dd\L	.	2.ff#X 2.dd\	.	2.fff#X/	2.aa\	.
.	.	.	.	16f# 16A\	.	16a 16f#/	.	16gg\JJ)	.	.	.	.	.	.	.	.	.	.	.	.
.	.	8AA/	.	16f# 16A\	.	16a 16f#/	.	4aa\	.	16dd\L	.	.	.	16dd\L	.	.	.	.	.	.
.	.	.	.	16f# 16A\	.	16a 16f#/	.	.	.	16dd\JJ	.	.	.	16dd\JJ	.	.	.	.	.	.
.	.	8D/	.	16f# 16A\	.	16a 16f#/	.	.	.	4dd\	.	.	.	4dd\	.	.	.	.	.	.
.	.	.	.	16f# 16A\	.	16a 16f#/	.	.	.	.	.	.	.	.	.	.	.	.	.	.
.	.	.	.	.	.	.	.	16qqbbn/	.	.	.	.	.	.	.	.	.	.	.	.
.	.	8AA/	.	16f# 16A\	.	16a 16f#/	.	(>16aa\LL	.	.	.	.	.	.	.	.	.	.	.	.
.	.	.	.	16f# 16A\	.	16a 16f#/	.	16gg#X\JJ)	.	.	.	.	.	.	.	.	.	.	.	.
.	.	8D/	.	16f# 16A\	.	16a 16f#/	.	8aa'>\L	.	4r	.	.	.	4r	.	.	.	.	.	.
.	.	.	.	16f# 16A\	.	16a 16f#/	.	.	.	.	.	.	.	.	.	.	.	.	.	.
.	.	8AA/J	.	16f# 16A\	.	16a 16f#/	.	(>16bbn\L	.	.	.	.	.	.	.	.	.	.	.	.
.	.	.	.	16f#JJ 16A\	.	16aJJ 16f#/	.	16aa\JJ)	.	.	.	.	.	.	.	.	.	.	.	.
=29	=29	=29	=29	=29	=29	=29	=29	=29	=29	=29	=29	=29	=29	=29	=29	=29	=29	=29	=29	=29
2.r	.	8C#X/L	.	16enLL 16A\	.	16aLL 16g/	.	(>16aa\LL	.	2.r	.	2.g 2.en\	.	2.r	.	2.gg 2.eeX\	.	2.ggg/	2.aa\	.
.	.	.	.	16e 16A\	.	16a 16g/	.	16gg\)	.	.	.	.	.	.	.	.	.	.	.	.
.	.	8AA/	.	16e 16A\	.	16a 16g/	.	16een'>\	.	.	.	.	.	.	.	.	.	.	.	.
.	.	.	.	16e 16A\	.	16a 16g/	.	16cc#X'>\JJ	.	.	.	.	.	.	.	.	.	.	.	.
.	.	8C#/	.	16e 16A\	.	16a 16g/	.	4.a\	.	.	.	.	.	.	.	.	.	.	.	.
.	.	.	.	16e 16A\	.	16a 16g/	.	.	.	.	.	.	.	.	.	.	.	.	.	.
.	.	8AA/	.	16e 16A\	.	16a 16g/	.	.	.	.	.	.	.	.	.	.	.	.	.	.
.	.	.	.	16e 16A\	.	16a 16g/	.	.	.	.	.	.	.	.	.	.	.	.	.	.
.	.	8C#/	.	16e 16A\	.	16a 16g/	.	.	.	.	.	.	.	.	.	.	.	.	.	.
.	.	.	.	16e 16A\	.	16a 16g/	.	.	.	.	.	.	.	.	.	.	.	.	.	.
.	.	8AA/J	.	16e 16A\	.	16a 16g/	.	8gg\	.	.	.	.	.	.	.	.	.	.	.	.
.	.	.	.	16eJJ 16A\	.	16aJJ 16g/	.	.	.	.	.	.	.	.	.	.	.	.	.	.
=30	=30	=30	=30	=30	=30	=30	=30	=30	=30	=30	=30	=30	=30	=30	=30	=30	=30	=30	=30	=30
2.r	.	8D/L	.	16f#XLL 16A\	.	16aLL 16f#X/	.	8ff#X\	.	2.r	.	2f#X 2d\	.	2.r	.	2ff#X 2dd\	.	2fff#X/	2.aatt<\	.
.	.	.	.	16f# 16A\	.	16a 16f#/	.	.	.	.	.	.	.	.	.	.	.	.	.	.
.	.	8AA/	.	16f# 16A\	.	16a 16f#/	.	(>4aa\	sf	.	.	.	.	.	.	.	.	.	.	.
.	.	.	.	16f# 16A\	.	16a 16f#/	.	.	.	.	.	.	.	.	.	.	.	.	.	.
.	.	8D/	.	16f# 16A\	.	16a 16f#/	.	.	.	.	.	.	.	.	.	.	.	.	.	.
.	.	.	.	16f# 16A\	.	16a 16f#/	.	.	.	.	.	.	.	.	.	.	.	.	.	.
.	.	8AA/J	.	16f# 16A\	.	16a 16f#/	.	16gg\LL	.	.	.	.	.	.	.	.	.	.	.	.
.	.	.	.	16f#JJ 16A\	.	16aJJ 16f#/	.	16ff#X\JJ)	.	.	.	.	.	.	.	.	.	.	.	.
*	*	*Xtremolo	*	*	*	*	*	*	*	*	*	*	*	*	*	*	*	*	*	*
.	.	8C#X/L	.	16gLL 16A\	.	16aLL 16g/	.	8een|>\L	.	.	.	4g 4en\	.	.	.	4gg 4eeX\	.	4ggg/	.	.
.	.	.	.	16g 16A\	.	16a 16g/	.	.	.	.	.	.	.	.	.	.	.	.	.	.
.	.	8AA/J	.	16g 16A\	.	16a 16g/	.	(>16gg\L	.	.	.	.	.	.	.	.	.	.	.	.
.	.	.	.	16gJJ 16A\	.	16aJJ 16g/	.	32ff#\L	.	.	.	.	.	.	.	.	.	.	.	.
.	.	.	.	.	.	.	.	32ee\JJJ)	.	.	.	.	.	.	.	.	.	.	.	.
=31	=31	=31	=31	=31	=31	=31	=31	=31	=31	=31	=31	=31	=31	=31	=31	=31	=31	=31	=31	=31
*	*	*tremolo	*	*	*	*	*	*	*	*	*	*	*	*	*	*	*	*	*	*
2.r	.	8D/L	.	16f#XLL 16A\	.	16aLL 16f#X/	.	8dd'>\L	.	2.r	.	2f#X 2d\	.	2.r	.	2ff#X 2dd\	.	2fff#X/	2.aatt<\	.
.	.	.	.	16f# 16A\	.	16a 16f#/	.	.	.	.	.	.	.	.	.	.	.	.	.	.
.	.	8AA/	.	16f# 16A\	.	16a 16f#/	.	(>16bbn\L	.	.	.	.	.	.	.	.	.	.	.	.
.	.	.	.	16f# 16A\	.	16a 16f#/	.	16aa\JJ)	.	.	.	.	.	.	.	.	.	.	.	.
.	.	.	.	.	.	.	.	8qqgg#X/	.	.	.	.	.	.	.	.	.	.	.	.
.	.	8D/	.	16f# 16A\	.	16a 16f#/	.	8.aa'>^<\L	.	.	.	.	.	.	.	.	.	.	.	.
.	.	.	.	16f# 16A\	.	16a 16f#/	.	.	.	.	.	.	.	.	.	.	.	.	.	.
.	.	8AA/J	.	16f# 16A\	.	16a 16f#/	.	.	.	.	.	.	.	.	.	.	.	.	.	.
.	.	.	.	16f#JJ 16A\	.	16aJJ 16f#/	.	(>32ggn\LL	.	.	.	.	.	.	.	.	.	.	.	.
.	.	.	.	.	.	.	.	32ff#X\JJJ)	.	.	.	.	.	.	.	.	.	.	.	.
*	*	*Xtremolo	*	*	*	*	*	*	*	*	*	*	*	*	*	*	*	*	*	*
.	.	8C#X/L	.	16gLL 16A\	.	16aLL 16g/	.	8een|>\L	.	.	.	4g 4en\	.	.	.	4gg 4eeX\	.	4ggg/	.	.
.	.	.	.	16g 16A\	.	16a 16g/	.	.	.	.	.	.	.	.	.	.	.	.	.	.
.	.	8AA/J	.	16g 16A\	.	16a 16g/	.	(>16gg\L	.	.	.	.	.	.	.	.	.	.	.	.
.	.	.	.	16gJJ 16A\	.	16aJJ 16g/	.	32ff#X\L	.	.	.	.	.	.	.	.	.	.	.	.
.	.	.	.	.	.	.	.	32ee\JJJ)	.	.	.	.	.	.	.	.	.	.	.	.
*	*	*	*	*Xtremolo	*	*Xtremolo	*	*	*	*	*	*	*	*	*	*	*	*	*	*
!!LO:PB:g=original
=32	=32	=32	=32	=32	=32	=32	=32	=32	=32	=32	=32	=32	=32	=32	=32	=32	=32	=32	=32	=32
2.r	.	8D\	.	8f#X 8A\	.	8a 8f#X/	.	8dd\L	.	2.r	.	8f#X 8d\	.	2.r	.	4ff#X 4dd\	.	4fff#X/	4aa\	.
.	.	8r	.	8r	.	8r	.	(>16bbn\L	.	.	.	8r	.	.	.	.	.	.	.	.
.	.	.	.	.	.	.	.	16aa\JJ)	.	.	.	.	.	.	.	.	.	.	.	.
.	.	8D\	.	8f# 8A\	.	8a 8f#/	.	8dd\L	.	.	.	8f# 8d\	.	.	.	4r	.	4r	4ryy	.
.	.	8r	.	8r	.	8r	.	(>16cccn\L	.	.	.	8r	.	.	.	.	.	.	.	.
.	.	.	.	.	.	.	.	16bbn\JJ)	.	.	.	.	.	.	.	.	.	.	.	.
.	.	8D\	.	8f# 8A\	.	8a 8f#/	.	8dd\L	.	.	.	8f# 8d\	.	.	.	4r	.	4r	4ryy	.
.	.	8r	.	8r	.	8r	.	(>16ddd\L	.	.	.	8r	.	.	.	.	.	.	.	.
.	.	.	.	.	.	.	.	16cccn\JJ)	.	.	.	.	.	.	.	.	.	.	.	.
*	*	*	*	*	*	*	*	*	*	*	*	*clefF4	*	*	*	*	*	*	*	*
=33	=33	=33	=33	=33	=33	=33	=33	=33	=33	=33	=33	=33	=33	=33	=33	=33	=33	=33	=33	=33
*	*	*	*	*	*	*	*	*	*	*	*	*	*	*	*	*^	*	*	*	*
!	!	!	!	!	!	!	!	!	!	!	!	!LO:TX:a:Bi:t=Col b&colon;	!	!	!	!	!	!	!	!	!
!	!	!	!LO:DY:b:rj	!	!LO:DY:b:rj	!	!LO:DY:b:rj	!	!LO:DY:b:rj	!	!	!	!LO:DY:b:rj	!	!	!	!	!	!	!	!LO:DY:b:rj
2.r	.	8E-X\L	f	8ee-XL 8e-X\	f	8ee-XL 8e-X/	f	8ee-X\L	f	2.r	.	8E-X\Lyy	f	2.r	.	8ee-/L	8ee-\L	.	8eee-X/L	8eee-X\L	f
.	.	16e-\L	.	(>16ee-\L	.	(<16ee-/L	.	(>16eee-X\L	.	.	.	16e-\Lyy	.	.	.	16ee-/L	16ee-\L	.	16eee-/L	16eee-\L	.
.	.	16d\JJ	.	16dd\JJ	.	16dd/JJ	.	16ddd\JJ	.	.	.	16d\JJyy	.	.	.	16dd/JJ	16dd\JJ	.	16ddd/JJ	16ddd\JJ	.
.	.	8e-\L	.	8ee-\L)	.	8ee-/L)	.	8eee-\L)	.	.	.	8e-\Lyy	.	.	.	8ee-\L	4ryy	.	8eee-\L	4ryy	.
.	.	16e-\L	.	(>16ee-\L	.	(<16ee-/L	.	(>16eee-\L	.	.	.	16e-\Lyy	.	.	.	16ee-\L	.	.	16eee-\L	.	.
.	.	16d\JJ	.	16dd\JJ	.	16dd/JJ	.	16ddd\JJ	.	.	.	16d\JJyy	.	.	.	16dd\JJ	.	.	16ddd\JJ	.	.
.	.	8e-\L	.	8ee-\L)	.	8ee-/L)	.	8eee-\L)	.	.	.	8e-\Lyy	.	.	.	8ee-\L	4ryy	.	8eee-\L	4ryy	.
.	.	16e-\L	.	(>16ee-\L	.	(<16ee-/L	.	(>16eee-\L	.	.	.	16e-\Lyy	.	.	.	16ee-\L	.	.	16eee-\L	.	.
.	.	16d\JJ	.	16dd\JJ	.	16dd/JJ	.	16ddd\JJ	.	.	.	16d\JJyy	.	.	.	16dd\JJ	.	.	16ddd\JJ	.	.
*	*	*	*	*	*	*	*	*	*	*	*	*	*	*	*	*v	*v	*	*	*	*
*	*	*	*	*	*	*	*	*	*	*	*	*	*	*	*	*	*	*v	*v	*
=34	=34	=34	=34	=34	=34	=34	=34	=34	=34	=34	=34	=34	=34	=34	=34	=34	=34	=34	=34
2.r	.	8.e-\L	.	8.ee-\L)	.	8.ee-/L)	.	8.eee-\L)	.	2.r	.	8.e-\Lyy	.	2.r	.	8.ee-\L	.	8.eee-'>\L	.
.	.	16d\Jk	.	16dd\Jk	.	16dd/Jk	.	16ddd\Jk	.	.	.	16d\Jkyy	.	.	.	16dd\Jk	.	16ddd'>\Jk	.
.	.	8c\L	.	8cc'>\L	.	8cc'</L	.	8ccc'>\L	.	.	.	8c\Lyy	.	.	.	8cc'>\L	.	8ccc'>\L	.
.	.	8B-X\	.	8b-X'>\	.	8b-X'</	.	8bb-X'>\	.	.	.	8B-X\yy	.	.	.	8b-'>\	.	8bb-X'>\	.
.	.	8A\	.	8a'>\	.	8a'</	.	8aa'>\	.	.	.	8A\yy	.	.	.	8a'>\	.	8aa'>\	.
.	.	8G\J	.	8g'>\J	.	8g'</J	.	8gg'>\J	.	.	.	8G\Jyy	.	.	.	8g'>\J	.	8gg'>\J	.
=35	=35	=35	=35	=35	=35	=35	=35	=35	=35	=35	=35	=35	=35	=35	=35	=35	=35	=35	=35
*	*	*	*	*	*	*	*	*	*	*	*	*	*	*	*	*^	*	*	*
!	!LO:DY:b:rj	!	!	!	!	!	!	!	!	!	!	!	!	!	!	!	!	!	!	!
8F\	p	8Fn\	.	4fn\	.	4f/	.	8ffn\	.	[>2.f/	<	8Fn\yy	.	[>2.f [>2.F/	<	4f/	4f\	.	8ffn\L	.
.	.	.	.	.	.	.	.	16qqg/	.	.	.	.	.	.	.	.	.	.	16qqgg/	.
8r	.	8r	.	.	.	.	.	(<16f/LL	.	.	.	8ryy	.	.	.	.	.	.	16ff\L	.
.	.	.	.	.	.	.	.	16en/JJ	.	.	.	.	.	.	.	.	.	.	16een\JJ	.
8F\	.	8F\	.	8r	.	8r	.	8f/L)	.	.	.	8F\yy	.	.	.	4r	4ryy	.	8ff\L	.
.	.	.	.	.	.	.	.	16qqg/	.	.	.	.	.	.	.	.	.	.	16qqgg/	.
8r	.	8r	.	(<8A/L	.	8c/L	.	16f/L	.	.	[ >	8ryy	.	.	[ >	.	.	.	16ff\L	.
.	.	.	.	.	.	.	.	16e/JJ	.	.	.	.	.	.	.	.	.	.	16een\JJ	.
8F\	.	8F\	.	8B-/	.	(<8d-X/	.	8f/L	.	.	.	8F\yy	.	.	.	4r	4ryy	.	8ff\L	.
.	.	.	.	.	.	.	.	16qqg/	.	.	.	.	.	.	.	.	.	.	16qqgg/	.
8r	.	8r	.	8Bn/J	.	8dn/J	.	16f/L	.	.	.	8ryy	.	.	.	.	.	.	16ff\L	.
.	.	.	.	.	.	.	.	16e/JJ	.	.	.	.	.	.	.	.	.	.	16ee\JJ	.
=36	=36	=36	=36	=36	=36	=36	=36	=36	=36	=36	=36	=36	=36	=36	=36	=36	=36	=36	=36	=36
4F\	.	4F\	.	2c/)	.	2e-X/)	.	4f/	.	4f/]	]	4F\yy	.	4f] 4F/]	]	16r	16ryy	.	4ff\	.
.	.	.	.	.	.	.	.	.	.	.	.	.	.	.	.	16f/LL	16f\LL	.	.	.
.	.	.	.	.	.	.	.	.	.	.	.	.	.	.	.	16eX/	16e\	.	.	.
.	.	.	.	.	.	.	.	.	.	.	.	.	.	.	.	16f/JJ	16f\JJ	.	.	.
4r	.	4r	.	.	.	.	.	4r	.	4r	.	4ryy	.	4r	.	16f#X/LL	16f#\LL	.	4r	.
.	.	.	.	.	.	.	.	.	.	.	.	.	.	.	.	16g/	16g\	.	.	.
.	.	.	.	.	.	.	.	.	.	.	.	.	.	.	.	16a-X/	16a-\	.	.	.
.	.	.	.	.	.	.	.	.	.	.	.	.	.	.	.	16a/JJ	16a\JJ	.	.	.
4r	.	4r	.	4r	.	4r	.	4r	.	4r	.	4ryy	.	4r	.	16b-/LL	16b-\LL	.	4r	.
.	.	.	.	.	.	.	.	.	.	.	.	.	.	.	.	16bX/	16b\	.	.	.
.	.	.	.	.	.	.	.	.	.	.	.	.	.	.	.	16cc/	16cc\	.	.	.
!!LO:TX:a:Bi:t=[segno]:problem:znak segno na kresce taktowej w każdym głosie
.	.	.	.	.	.	.	.	.	.	.	.	.	.	.	.	16cc#X/JJ	16a\JJ	.	.	.
!!LO:PB:g=original
*	*	*	*	*	*	*	*	*	*	*	*	*	*	*	*	*v	*v	*	*	*
=37||	=37||	=37||	=37||	=37||	=37||	=37||	=37||	=37||	=37||	=37||	=37||	=37||	=37||	=37||	=37||	=37||	=37||	=37||	=37||
*>D	*	*>D	*	*>D	*	*>D	*	*>D	*	*>D	*	*>D	*	*>D	*	*>D	*	*>D	*
*k[b-e-a-]	*	*k[b-e-a-]	*	*k[b-e-a-]	*	*k[b-e-a-]	*	*k[b-e-a-]	*	*k[b-e-a-]	*	*k[b-e-a-]	*	*k[b-e-a-]	*	*k[b-e-a-]	*	*k[b-e-a-]	*
*	*	*	*	*tremolo	*	*tremolo	*	*tremolo	*	*	*	*	*	*	*	*	*	*	*
!	!	!LO:TX:t=P::problem=w źródle kolejność znaków przykluczowych&colon; E- BB- AA-	!	!	!	!	!	!	!	!	!	!	!	!	!	!	!	!LO:TX:t=P::problem=w źródle kolejność znaków przykluczowych&colon; ee- b- a-	!
!	!	!	!	!LO:TX:t=P::problem=w źródle kolejność znaków przykluczowych&colon; e- B- A-	!	!LO:TX:t=P::problem=w źródle kolejność znaków przykluczowych&colon; ee- b- a-	!	!	!	!	!	!	!	!	!	!	!	!	!
!	!	!	!	!	!	!	!	!LO:TX:t=P::problem=w źródle kolejność znaków przykluczowych&colon; ee- b- a-	!	!	!	!LO:TX:t=P::problem=w źródle kolejność znaków przykluczowych&colon;  E- BB- AA-	!	!	!	!	!	!	!
!	!	!	!	!	!	!	!	!	!	!	!	!	!	!	!	!	!	!LO:TX:a:Bi:t=Tema z Opery Roſsiniego Derliska	!
!	!	!	!	!	!	!	!	!	!	!LO:TX:a:Bi:t=Trombe	!	!LO:TX:a:Bi:t=Fag	!	!	!	!	!	!LO:TX:a:Bi:t=Trio	!
!	!	!LO:TX:t=P:problem=mixed beam	!	!	!	!	!	!	!	!	!	!	!	!	!	!	!	!	!
!	!	!	!LO:DY:b:rj	!	!LO:DY:b:rj	!	!LO:DY:b:rj	!	!LO:DY:b:rj	!	!	!	!	!	!	!	!	!	!
2.r	.	8EE-/L	sfp	8GL 8E-/	sfpp	8e-L 8G/	sfpp	8gL 8B-/	sfpp	2.r	.	2.r	.	2.r	.	4r	.	2.r	.
.	.	8E-\J	.	8G 8E-/	.	8e- 8G/	.	8g 8B-/	.	.	.	.	.	.	.	.	.	.	.
*	*	*tremolo	*	*	*	*	*	*	*	*	*	*	*	*	*	*	*	*	*
.	.	8E-\L	.	8G 8E-/	.	8e- 8G/	.	8g 8B-/	.	.	.	.	.	.	.	8r	.	.	.
.	.	8E-\	.	8G 8E-/	.	8e- 8G/	.	8g 8B-/	.	.	.	.	.	.	.	(>8ggL 8ee-\	.	.	.
.	.	8E-\	.	8G 8E-/	.	8e- 8G/	.	8g 8B-/	.	.	.	.	.	.	.	8aa- 8ff\	<	.	.
.	.	8E-\J	.	8GJ 8E-/	.	8e-J 8G/	.	8gJ 8B-/	.	.	.	.	.	.	.	8aaJ 8ff#X\	[[	.	.
*	*	*Xtremolo	*	*	*	*	*	*	*	*	*	*	*	*	*	*	*	*	*
=38	=38	=38	=38	=38	=38	=38	=38	=38	=38	=38	=38	=38	=38	=38	=38	=38	=38	=38	=38
!	!	!LO:TX:t=P:problem=mixed beam	!	!	!	!	!	!	!	!	!	!	!	!	!	!	!	!	!
!	!	!	!LO:DY:b:rj	!	!LO:DY:b:rj	!	!LO:DY:b:rj	!	!LO:DY:b:rj	!	!	!	!	!	!	!	!LO:DY:b:rj	!	!
2.r	.	8EE-/L	sfpp	8GL 8E-/	sfpp	8e-L 8G/	sfpp	8gL 8B-/	sfpp	2.r	.	2.r	.	2.r	.	4.bb- 4.gg^<\)	sf	2.r	.
.	.	8E-\J	.	8G 8E-/	.	8e- 8G/	.	8g 8B-/	.	.	.	.	.	.	.	.	.	.	.
*	*	*tremolo	*	*	*	*	*	*	*	*	*	*	*	*	*	*	*	*	*
.	.	8E-\L	.	8G 8E-/	.	8e- 8G/	.	8g 8B-/	.	.	.	.	.	.	.	.	.	.	.
.	.	8E-\	.	8G 8E-/	.	8e- 8G/	.	8g 8B-/	.	.	.	.	.	.	.	8ggL 8ee-\	.	.	.
.	.	8E-\	.	8G 8E-/	.	8e- 8G/	.	8g 8B-/	.	.	.	.	.	.	.	8aa- 8ff\	.	.	.
.	.	8E-\J	.	8GJ 8E-/	.	8e-J 8G/	.	8gJ 8B-/	.	.	.	.	.	.	.	8aaJ 8ff#X\	.	.	.
*	*	*Xtremolo	*	*	*	*	*	*	*	*	*	*	*	*	*	*	*	*	*
=39	=39	=39	=39	=39	=39	=39	=39	=39	=39	=39	=39	=39	=39	=39	=39	=39	=39	=39	=39
*	*	*	*	*rep	*	*rep	*	*rep	*	*	*	*	*	*	*	*	*	*	*
!	!	!LO:TX:t=P:problem=mixed beam	!	!	!	!	!	!	!	!	!	!	!	!	!	!	!	!	!
!	!	!	!LO:DY:b:rj	!	!LO:DY:b:rj	!	!LO:DY:b:rj	!	!LO:DY:b:rj	!	!	!	!	!	!	!	!LO:DY:b:rj	!	!
2.r	.	8EE-/L	sfpp	8GL 8E-/	sfp	8e-L 8G/	sfp	8gL 8B-/	sfp	2.r	.	2.r	.	2.r	.	4.bb- 4.gg^<\	sf	2.r	.
.	.	8E-\J	.	8G 8E-/	.	8e- 8G/	.	8g 8B-/	.	.	.	.	.	.	.	.	.	.	.
*	*	*tremolo	*	*	*	*	*	*	*	*	*	*	*	*	*	*	*	*	*
.	.	8E-\L	.	8G 8E-/	.	8e- 8G/	.	8g 8B-/	.	.	.	.	.	.	.	.	.	.	.
.	.	8E-\	.	8G 8E-/	.	8e- 8G/	.	8g 8B-/	.	.	.	.	.	.	.	8ggL 8ee-\	.	.	.
.	.	8E-\	.	8G 8E-/	.	8e- 8G/	.	8g 8B-/	.	.	.	.	.	.	.	8aa-X 8ff\	<	.	.
.	.	8E-\J	.	8GJ 8E-/	.	8e-J 8G/	.	8gJ 8B-/	.	.	.	.	.	.	.	8aaJ 8ff#X\	[[	.	.
*	*	*	*	*Xrep	*	*Xrep	*	*Xrep	*	*	*	*	*	*	*	*	*	*	*
*	*	*	*	*	*	*	*	*Xtremolo	*	*	*	*	*	*	*	*	*	*	*
=40	=40	=40	=40	=40	=40	=40	=40	=40	=40	=40	=40	=40	=40	=40	=40	=40	=40	=40	=40
*	*	*	*	*	*	*	*	*	*	*	*	*^	*	*	*	*	*	*	*
*	*	*	*	*	*	*	*	*	*	*	*	*	*	*	*^	*	*	*	*	*
*	*	*	*	*	*	*	*	*	*	*	*	*	*	*	*	*	*	*^	*	*	*
*	*	*	*	*	*	*	*	*	*	*	*	*	*	*	*	*	*	*	*	*	*^	*
.	.	.	.	.	.	.	.	16qqb-/	ff	.	.	.	.	.	.	.	.	.	.	.	.	.	.
!	!	!	!LO:DY:b:rj	!	!LO:DY:b:rj	!	!LO:DY:b:rj	!	!	!	!LO:DY:b:rj	!	!	!LO:DY:b:rj	!	!	!LO:DY:b:rj	!	!	!	!	!	!LO:DY:b:rj
2.r	.	8CL 8CC/	ff	16cLL 16C/	ff	16enLL 16G/	ff	[>4bb-^<\	.	(>2.b-\	sf	(>2.G/	&(<2.En\	sf >]	2.cc/	2.cc\	sf	[>4bb-/	4gg\	.	(>2.eeen/	(>2.gg\	sf
.	.	.	.	16c 16C/	.	16e 16G/	.	.	.	.	.	.	.	.	.	.	.	.	.	.	.	.	.
.	.	8C 8CC/	.	16c 16C/	.	16e 16G/	.	.	.	.	.	.	.	.	.	.	.	.	.	.	.	.	.
.	.	.	.	16c 16C/	.	16e 16G/	.	.	.	.	.	.	.	.	.	.	.	.	.	.	.	.	.
.	.	8C 8CC/	.	16c 16C/	>	16e 16G/	>	16bb-\LL]	.	.	.	.	.	.	.	.	.	16bb-/LL]	4r	.	.	.	.
.	.	.	.	16c 16C/	.	16e 16G/	.	(>16gg\	.	.	.	.	.	.	.	.	.	16gg/	.	.	.	.	.
.	.	8C 8CC/	.	16c 16C/	.	16e 16G/	.	16een\	.	.	.	.	.	.	.	.	.	16eeX/	.	.	.	.	.
.	.	.	.	16c 16C/	.	16e 16G/	.	16cc\JJ)	.	.	.	.	.	.	.	.	.	16cc/JJ	.	.	.	.	.
.	.	8C 8CC/	.	16c 16C/	.	16e 16G/	.	(>8.dd-X^<\L	.	.	.	.	.	.	.	.	.	8.dd-X^>/L	4r	.	.	.	.
.	.	.	.	16c 16C/	.	16e 16G/	.	.	.	.	.	.	.	.	.	.	.	.	.	.	.	.	.
.	.	8CJ 8CC/	.	16c 16C/	.	16e 16G/	.	.	.	.	.	.	.	.	.	.	.	.	.	.	.	.	.
.	.	.	.	16cJJ 16C/	]]	16eJJ 16G/	]]	16cc\Jk)	.	.	.	.	.	.	.	.	.	16cc/Jk	.	.	.	.	.
*	*	*Xtremolo	*	*Xtremolo	*	*Xtremolo	*	*	*	*	*	*	*	*	*	*	*	*	*	*	*	*	*
*	*	*	*	*	*	*	*	*	*	*	*	*v	*v	*	*	*	*	*	*	*	*	*	*
=41	=41	=41	=41	=41	=41	=41	=41	=41	=41	=41	=41	=41	=41	=41	=41	=41	=41	=41	=41	=41	=41	=41
2.r	.	8r	p	8r	p	8r	.	4cc\	.	4a-X\)	.	4A-X) 4F\&)	.	4cc/	4cc\	.	4cc/	2.r	.	4fff/)	4aa-\)	.
!	!	!	!	!	!	!	!LO:DY:a:rj	!	!	!	!	!	!	!	!	!	!	!	!	!	!	!
.	.	8FF/	.	8c\	.	8f 8A-X/	p	.	.	.	.	.	.	.	.	.	.	.	.	.	.	.
.	.	4F\	.	4c\	.	4f 4A-/	.	4r	.	4r	.	4r	.	4r	4ryy	.	8r	.	.	4r	4ryy	.
.	.	.	.	.	.	.	.	.	.	.	.	.	.	.	.	.	8ff/L	.	.	.	.	.
.	.	4r	.	4r	.	4r	.	4r	.	4r	.	4r	.	4r	4ryy	.	(<8ff#X/	.	.	4r	4ryy	.
.	.	.	.	.	.	.	.	.	.	.	.	.	.	.	.	.	8gg/J	.	.	.	.	.
*	*	*	*	*	*	*	*	*	*	*	*	*	*	*v	*v	*	*	*	*	*	*	*
=42	=42	=42	=42	=42	=42	=42	=42	=42	=42	=42	=42	=42	=42	=42	=42	=42	=42	=42	=42	=42	=42
!	!	!	!	!	!	!	!	!	!LO:DY:a:rj	!	!	!	!	!	!	!	!	!LO:DY:a:rj	!	!	!
2.r	.	4BB-/	.	8r	.	8r	.	8r	p	2.r	.	2.r	.	2.r	.	4.aa-/)	8r	sf	8r	8ryy	.
.	.	.	.	8d^>\	.	8f 8B-^>/	.	8a- 8B-^>/	.	.	.	.	.	.	.	.	8cc-X^<\L	.	8cc-X>^/L	8cc-\L	.
*	*	*	*	*tremolo	*	*tremolo	*	*tremolo	*	*	*	*	*	*	*	*	*	*	*	*	*
.	.	4r	.	8d\L	.	8fL 8B-/	.	8a-L 8B-/	.	.	.	.	.	.	.	.	8b-\	.	8b-/J	8b-\J	.
.	.	.	.	8d\	.	8f 8B-/	.	8a- 8B-/	.	.	.	.	.	.	.	8ff/L	8dd\	.	8r	8ryy	.
.	.	4r	.	8d\	.	8f 8B-/	.	8a- 8B-/	.	.	.	.	.	.	.	8ff#X/	8ee-\	.	4r	4ryy	.
.	.	.	.	8d\J	.	8fJ 8B-/	.	8a-J 8B-/	.	.	.	.	.	.	.	8gg/J	8eeX\J	.	.	.	.
*	*	*	*	*Xtremolo	*	*Xtremolo	*	*Xtremolo	*	*	*	*	*	*	*	*	*	*	*	*	*
=43	=43	=43	=43	=43	=43	=43	=43	=43	=43	=43	=43	=43	=43	=43	=43	=43	=43	=43	=43	=43	=43
2.r	.	4BB-/	.	8r	.	8r	.	8r	.	2.r	.	2.r	.	2.r	.	4.aa-/	8ff\	.	8r	8ryy	.
.	.	.	.	8d^>\	.	8f 8B-^>/	.	8a- 8B-^>/	.	.	.	.	.	.	.	.	8cc-X^<\L	.	8cc-X/L	8cc-\L	.
*	*	*	*	*tremolo	*	*tremolo	*	*tremolo	*	*	*	*	*	*	*	*	*	*	*	*	*
.	.	4r	.	8d\L	.	8fL 8B-/	.	8a-L 8B-/	.	.	.	.	.	.	.	.	8b-\	.	8b-/J	8b-\J	.
.	.	.	.	8d\	.	8f 8B-/	.	8a- 8B-/	.	.	.	.	.	.	.	8ff/L	8dd\	.	8r	8ryy	.
.	.	4r	.	8d\	.	8f 8B-/	.	8a- 8B-/	.	.	.	.	.	.	.	8ff#X/	8ee-\	.	4r	4ryy	.
.	.	.	.	8d\J	.	8fJ 8B-/	.	8a-J 8B-/	.	.	.	.	.	.	.	8gg/J	8eeX\J	.	.	.	.
*	*	*	*	*Xtremolo	*	*Xtremolo	*	*Xtremolo	*	*	*	*	*	*	*	*	*	*	*	*	*
=44	=44	=44	=44	=44	=44	=44	=44	=44	=44	=44	=44	=44	=44	=44	=44	=44	=44	=44	=44	=44	=44
*tremolo	*	*tremolo	*	*tremolo	*	*tremolo	*	*	*	*	*	*	*	*	*	*	*	*	*	*	*
!	!LO:DY:b:rj	!	!LO:DY:b:rj	!	!LO:DY:b:rj	!	!LO:DY:b:rj	!	!LO:DY:b:rj	!	!LO:DY:b:rj	!	!LO:DY:b:rj	!	!LO:DY:b:rj	!	!	!LO:DY:a:rj	!	!	!LO:DY:a:rj
16BB-/LL	ff	8BB-/L	ff	16d\LL	ff	16fLL 16B-/	ff	[>4aa- 4b- 4d\	f	2.B-/	sf >]]	2.F 2.D\	sf >]]	2.b- 2.B-\	sf >]]	[>4aa-/	4ff\	f	2.ddd/	2.ff\	f
16BB-/	.	.	.	16d\	.	16f 16B-/	.	.	.	.	.	.	.	.	.	.	.	.	.	.	.
16BB-/	.	8BB-/	.	16d\	.	16f 16B-/	.	.	.	.	.	.	.	.	.	.	.	.	.	.	.
16BB-/JJ	.	.	.	16d\	.	16f 16B-/	.	.	.	.	.	.	.	.	.	.	.	.	.	.	.
*Xtremolo	*	*	*	*	*	*	*	*	*	*	*	*	*	*	*	*	*	*	*	*	*
4BB-/	.	8BB-/	.	16d\	.	16f 16B-/	.	16aa-\LL]	.	.	.	.	.	.	.	16aa-/LL]	4r	.	.	.	.
.	.	.	.	16d\	.	16f 16B-/	.	(>16ff\	.	.	.	.	.	.	.	16ff/	.	.	.	.	.
.	.	8BB-/	.	16d\	.	16f 16B-/	.	16dd\	.	.	.	.	.	.	.	16dd/	.	.	.	.	.
.	.	.	.	16d\	.	16fJJ 16B-/	.	16b-\JJ)	.	.	.	.	.	.	.	16b-/JJ	.	.	.	.	.
4r	.	8BB-/	.	16d\	.	16a-LL 16B-/	.	(>8.ccn\L	.	.	.	.	.	.	.	8.cc^>/L	4r	.	.	.	.
.	.	.	.	16d\	.	16a- 16B-/	.	.	.	.	.	.	.	.	.	.	.	.	.	.	.
.	.	8BB-/J	.	16d\	.	16a- 16B-/	.	.	.	.	.	.	.	.	.	.	.	.	.	.	.
.	.	.	.	16d\JJ	.	16a-JJ 16B-/	.	16b-\Jk)	.	.	.	.	.	.	.	16b-/Jk	.	.	.	.	.
*	*	*Xtremolo	*	*Xtremolo	*	*Xtremolo	*	*	*	*	*	*	*	*	*	*	*	*	*	*	*
!!LO:PB:g=original
*	*	*	*	*	*	*	*	*	*	*	*	*	*	*	*	*	*	*	*v	*v	*
=45	=45	=45	=45	=45	=45	=45	=45	=45	=45	=45	=45	=45	=45	=45	=45	=45	=45	=45	=45	=45
*	*	*^	*	*	*	*	*	*	*	*	*	*	*	*	*	*	*	*	*	*
*	*	*	*	*	*	*	*	*	*	*	*	*	*^	*	*	*	*	*	*	*	*
*	*	*	*	*	*	*	*	*	*	*	*	*	*	*	*	*^	*	*	*	*	*	*
!	!	!LO:TX:a:Bi:t=v&colon; cello	!	!	!	!	!	!	!	!	!	!	!	!	!	!	!	!	!	!	!	!	!
2.ryy	.	8E-/L	8E-\	.	8e-\	.	8r	p	8b-/	.	4B-/	.	8G/L	8E-\	.	8r	8ryy	.	4b-/	4r	.	4eee- 4gg\	.
!	!	!	!	!	!	!	!	!	!	!	!	!	!	!	!	!	!	!LO:DY:b:rj	!	!	!	!	!
.	.	8B-/	8r	p	8r	.	8B-/	.	8r	p	.	.	8B-/	8r	.	8b-/	8b-\	p	.	.	.	.	.
.	.	8E-/	8E-\	.	8e-\	.	8r	.	8g 8B-/	.	4r	.	8G/	8E-\	.	8r	8ryy	.	8r	8r	.	8r	.
.	.	8B-/	8r	.	8r	.	8B-/	.	8r	.	.	.	8B-/	8r	.	8b-/	8b-\	.	16gg/LL	16ee-\LL	.	(>16gggLL 16eee-\	.
.	.	.	.	.	.	.	.	.	.	.	.	.	.	.	.	.	.	.	16ff/JJ	16dd\JJ	.	16fffJJ 16ddd\	.
.	.	8E-/	8E-\	.	8e-\	.	8r	.	8g 8B-/	.	4r	.	8G/	8E-\	.	8r	8ryy	.	16ee-/LL	16cc\LL	.	16eee-LL 16ccc\	.
.	.	.	.	.	.	.	.	.	.	.	.	.	.	.	.	.	.	.	16dd/	16b-\	.	16ddd 16bb-\	.
.	.	8B-/J	8r	.	8r	.	8B-/	.	8r	.	.	.	8B-/J	8r	.	8b-/	8b-\	.	16cc/	16a-\	.	16ccc 16aa-\	.
.	.	.	.	.	.	.	.	.	.	.	.	.	.	.	.	.	.	.	16b-/JJ	16g\JJ	.	16bb-JJ 16gg\)	.
*	*	*	*	*	*	*	*	*	*	*	*	*	*	*	*	*	*	*	*v	*v	*	*	*
=46	=46	=46	=46	=46	=46	=46	=46	=46	=46	=46	=46	=46	=46	=46	=46	=46	=46	=46	=46	=46	=46	=46
2.ryy	.	8BB-/L	8BB-\	.	8f\	.	8r	.	8a- 8B-/	.	8r	.	8F/L	8D\	.	8r	8ryy	.	(<16a-LL 16f/	.	(>16aa-LL 16ff\	.
.	.	.	.	.	.	.	.	.	.	.	.	.	.	.	.	.	.	.	16fJ 16d/)	.	16ffJ 16dd\)	.
.	.	8B-/	8r	.	8r	.	8B-/	.	8r	.	8b-\	.	8B-/	8r	.	8b-/	8b-\	.	8b-J 8B-'<^>/	.	8bb-J 8b-'>\	.
.	.	8D/	8D\	.	8f\	.	8r	.	8a- 8B-/	.	8r	.	8F/	8D\	.	8r	8ryy	.	(<16a-LL 16f/	.	(>16aa-LL 16ff\	.
.	.	.	.	.	.	.	.	.	.	.	.	.	.	.	.	.	.	.	16fJ 16d/)	.	16ffJ 16dd\)	.
.	.	8B-/	8r	.	8r	.	8B-/	.	8r	.	8b-\	.	8B-/	8r	.	8b-/	8b-\	.	8b-J 8B-'<^>/	.	8bb-J 8b-'>\	.
.	.	8BB-/	8BB-\	.	8f\	.	8r	.	8a- 8B-/	.	8r	.	8F/	8D\	.	8r	8ryy	.	(<16a-LL 16f/	.	(>16aa-LL 16ff\	.
.	.	.	.	.	.	.	.	.	.	.	.	.	.	.	.	.	.	.	16fJ 16d/)	.	16ffJ 16dd\)	.
.	.	8B-/J	8r	.	8r	.	8B-/	.	8r	.	8b-\	.	8B-/J	8r	.	8b-/	8b-\	.	8b-J 8B-'<^>/	.	8bb-J 8b-'>\	.
=47	=47	=47	=47	=47	=47	=47	=47	=47	=47	=47	=47	=47	=47	=47	=47	=47	=47	=47	=47	=47	=47	=47
!	!	!	!	!	!	!	!	!	!	!	!	!	!	!	!	!	!	!	!LO:TX:t=P:problem=mixed beam	!	!	!
2.ryy	.	8E-/L	8E-\	.	8e-\	.	8r	.	8g 8B-/	.	8r	.	8G/L	8E-\	.	8r	8ryy	.	8gL 8e-/	.	8ggL 8ee-\	.
.	.	8B-/	8r	.	8r	.	8B-/	.	8r	.	16b-\LL	.	8B-/	8r	.	8b-/	8b-\	.	8ggJ 8ee-\	sf	8gggJ 8eee-\	sf
.	.	.	.	.	.	.	.	.	.	.	16b-\JJ	.	.	.	.	.	.	.	.	.	.	.
.	.	8E-/	8E-\	.	8e-\	.	8r	.	8g 8B-/	.	4b-\	.	8G/	8E-\	.	8r	8ryy	.	8r	.	8r	.
.	.	8B-/	8r	.	8r	.	8B-/	.	8r	.	.	.	8B-/	8r	.	8b-/	8b-\	.	16ggLL 16ee-\	.	16gggLL 16eee-\	.
.	.	.	.	.	.	.	.	.	.	.	.	.	.	.	.	.	.	.	16ffJJ 16dd\	.	16fffJJ 16ddd\	.
.	.	8E-/	8E-\	.	8e-\	.	8r	.	8g 8B-/	.	4r	.	8G/	8E-\	.	8r	8ryy	.	16ee-LL 16cc\	.	16eee-LL 16ccc\	.
.	.	.	.	.	.	.	.	.	.	.	.	.	.	.	.	.	.	.	16dd 16b-\	.	16ddd 16bb-\	.
.	.	8B-/J	8r	.	8r	.	8B-/	.	8r	.	.	.	8B-/J	8r	.	8b-/	8b-\	.	16cc 16a-\	.	16ccc 16aa-\	.
.	.	.	.	.	.	.	.	.	.	.	.	.	.	.	.	.	.	.	16b-JJ 16g\	.	16bb-JJ 16gg\	.
=48	=48	=48	=48	=48	=48	=48	=48	=48	=48	=48	=48	=48	=48	=48	=48	=48	=48	=48	=48	=48	=48	=48
2.ryy	.	8BB-/L	8BB-\	.	8f\	.	8r	.	8a- 8B-/	.	8r	.	8F/L	8D\	.	8r	8ryy	.	(<16a-LL 16f/	.	(>16aa-LL 16ff\	.
.	.	.	.	.	.	.	.	.	.	.	.	.	.	.	.	.	.	.	16fJ 16d/)	.	16ffJ 16dd\)	.
.	.	8B-/	8r	.	8r	.	8B-/	.	8r	.	8b-\	.	8B-/	8r	.	8b-/	8b-\	.	8b-J 8B-'</	.	8bb-J 8b-'>\	.
*	*	*	*	*	*	*	*	*	*	*	*	*	*	*	*	*	*	*	*rep	*	*rep	*
.	.	8D/	8D\	.	8f\	.	8r	.	8a- 8B-/	.	8r	.	8F/	8D\	.	8r	8ryy	.	(<16a-LL 16f/	.	(>16aa-LL 16ff\	.
.	.	.	.	.	.	.	.	.	.	.	.	.	.	.	.	.	.	.	16fJ 16d/)	.	16ffJ 16dd\)	.
.	.	8B-/	8r	.	8r	.	8B-/	.	8r	.	8b-\	.	8B-/	8r	.	8b-/	8b-\	.	8b-J 8B-'</	.	8bb-J 8b-'>\	.
*	*	*	*	*	*	*	*	*	*	*	*	*	*	*	*	*	*	*	*Xrep	*	*Xrep	*
*	*	*	*	*	*	*	*	*	*	*	*	*	*	*	*	*	*	*	*rep	*	*rep	*
.	.	8BB-/	8BB-\	.	8f\	.	8r	.	8a- 8B-/	.	8r	.	8F/	8D\	.	8r	8ryy	.	(<16a-LL 16f/	.	(>16aa-LL 16ff\	.
.	.	.	.	.	.	.	.	.	.	.	.	.	.	.	.	.	.	.	16fJ 16d/)	.	16ffJ 16dd\)	.
.	.	8B-/J	8r	.	8r	.	8B-/	.	8r	.	8b-\	.	8B-/J	8r	.	8b-/	8b-\	.	8b-J 8B-'</	.	8bb-J 8b-'>\	.
*	*	*	*	*	*	*	*	*	*	*	*	*	*	*	*	*	*	*	*Xrep	*	*Xrep	*
*	*	*	*	*	*	*	*	*	*	*	*	*	*v	*v	*	*	*	*	*	*	*	*
*	*	*v	*v	*	*	*	*	*	*	*	*	*	*	*	*v	*v	*	*	*	*	*
=49	=49	=49	=49	=49	=49	=49	=49	=49	=49	=49	=49	=49	=49	=49	=49	=49	=49	=49	=49
2.ryy	.	8E-\L	.	8e-\L	.	8e-/L	.	8g/L	.	2.r	.	4E-\	.	2.r	.	2.g 2.e-/	<	2.gg 2.ee-\	<
.	.	8E-\	.	8e-\	.	16g/L	.	16ee-/L	.	.	.	.	.	.	.	.	.	.	.
.	.	.	.	.	.	16g/JJ	.	16ee-/JJ	.	.	.	.	.	.	.	.	.	.	.
.	.	8E-\	.	8e-\	<	(<16g/LL	.	(<16ee-/LL	.	.	.	4e- 4E-\	.	.	.	.	.	.	.
.	.	.	.	.	.	16f#X/)	.	16dd/)	.	.	.	.	.	.	.	.	.	.	.
.	.	8E-\	.	8e-\J	.	16g'</	.	16ee-'</	.	.	.	.	.	.	.	.	.	.	.
.	.	.	.	.	.	16g'</JJ	.	16ee-'</JJ	.	.	.	.	.	.	.	.	.	.	.
.	.	8D\	<	8d\L	.	(<16g/LL	.	(<16ee-/LL	<	.	.	4d 4D\	.	.	.	.	.	.	.
.	.	.	.	.	.	16f#/)	.	16dd/)	.	.	.	.	.	.	.	.	.	.	.
.	.	8D\J	.	8d\J	.	16g'</	.	16ee-'</	.	.	.	.	.	.	.	.	.	.	.
.	.	.	.	.	.	16g'</JJ	.	16ee-'</JJ	.	.	.	.	.	.	.	.	.	.	.
=50	=50	=50	=50	=50	=50	=50	=50	=50	=50	=50	=50	=50	=50	=50	=50	=50	=50	=50	=50
*	*	*	*	*	*	*	*	*	*	*	*	*	*	*	*	*	*	*^	*
2.ryy	.	8C\L	.	8c\L	.	(>16g\LL	.	(>16ee-\LL	.	2.r	.	4c 4C\	.	2.r	.	2.gg 2.ee-\	[[	2.eee-/	2.gg\	[[
.	.	.	.	.	.	16ee-\)	.	16gg\)	.	.	.	.	.	.	.	.	.	.	.	.
.	.	8c\	.	8cc\	.	16ee-'>\	.	16gg'>\	.	.	.	.	.	.	.	.	.	.	.	.
.	.	.	.	.	.	16ee-'>\JJ	.	16gg'>\JJ	.	.	.	.	.	.	.	.	.	.	.	.
.	.	8c\	.	8cc\	.	(>16ee-\LL	.	(>16gg\LL	.	.	.	4c 4C\	.	.	.	.	.	.	.	.
.	.	.	.	.	.	16dd\)	.	16ff#X\)	.	.	.	.	.	.	.	.	.	.	.	.
.	.	8c\J	.	8cc\J	.	16ee-'>\	.	16gg'>\	.	.	.	.	.	.	.	.	.	.	.	.
.	.	.	.	.	.	16ee-'>\JJ	.	16gg'>\JJ	.	.	.	.	.	.	.	.	.	.	.	.
.	.	8B-\L	.	8b-\L	.	(>16ee-\LL	.	(>16gg\LL	.	.	.	4B- 4BB-\	.	.	.	.	.	.	.	.
.	.	.	.	.	.	16dd\)	.	16ff#\)	.	.	.	.	.	.	.	.	.	.	.	.
.	.	8B-\J	.	8b-\J	.	16ee-'>\	.	16gg\	.	.	.	.	.	.	.	.	.	.	.	.
.	.	.	.	.	.	16ee-'>\JJ	.	16gg'>\JJ	.	.	.	.	.	.	.	.	.	.	.	.
=51	=51	=51	=51	=51	=51	=51	=51	=51	=51	=51	=51	=51	=51	=51	=51	=51	=51	=51	=51	=51
*	*	*	*	*	*	*	*	*	*	*	*	*	*	*^	*	*	*	*	*	*
*	*	*tremolo	*	*tremolo	*	*	*	*	*	*	*	*	*	*	*	*	*	*	*	*	*
!	!	!	!	!	!	!	!	!	!	!	!	!	!	!	!	!	!	!LO:DY:b:rj	!	!	!LO:DY:b:rj
2.ryy	.	8A-\L	.	8a-\L	.	8cc\L	.	8cc\L	.	2.a-X\	.	4A- 4AA-\	.	2.cc/	2.a-X\	.	2.aa- 2.cc\	f	2.eee-/	2.ccc\	f
!	!	!	!	!	!	!	!LO:DY:b:rj	!	!LO:DY:b:rj	!	!	!	!	!	!	!	!	!	!	!	!
.	.	8A-\	.	8a-\	.	[>8aa-^<\J	f	[>8ccc^<\J	f	.	.	.	.	.	.	.	.	.	.	.	.
.	.	8A-\	.	8a-\	.	16aa-\LL]	.	16ccc\LL]	.	.	.	2c 2A-\	>]	.	.	.	.	.	.	.	.
.	.	.	.	.	.	16gg\	.	16bb-\	.	.	.	.	.	.	.	.	.	.	.	.	.
.	.	8A-\	.	8a-\	.	16ff\	.	16aa-\	.	.	.	.	.	.	.	.	.	.	.	.	.
.	.	.	.	.	.	16ee-\JJ	.	16gg\JJ	.	.	.	.	.	.	.	.	.	.	.	.	.
.	.	8A-\	.	8a-\	.	16dd\LL	.	16ff\LL	.	.	.	.	.	.	.	.	.	.	.	.	.
.	.	.	.	.	.	16cc\	.	16ee-\	.	.	.	.	.	.	.	.	.	.	.	.	.
.	.	8A-\J	.	8a-\J	.	16b-\	.	16dd\	.	.	.	.	.	.	.	.	.	.	.	.	.
.	.	.	.	.	.	16a-\JJ	.	16cc\JJ	.	.	.	.	.	.	.	.	.	.	.	.	.
*	*	*Xtremolo	*	*Xtremolo	*	*	*	*	*	*	*	*	*	*	*	*	*	*	*	*	*
*	*	*	*	*	*	*	*	*	*	*	*	*	*	*v	*v	*	*	*	*v	*v	*
=52	=52	=52	=52	=52	=52	=52	=52	=52	=52	=52	=52	=52	=52	=52	=52	=52	=52	=52	=52
!	!	!LO:TX:t=P:problem=mixed beam	!	!LO:TX:t=P:problem=mixed beam	!	!	!	!	!	!	!	!	!	!	!	!	!	!	!
2.ryy	.	8B-\L	.	8b-\L	.	16g/LL	.	(<16b-/LL	.	8r	.	4B-\	.	8r	.	(>16ggLL 16b-\	.	(>16bb-LL 16gg\	.
.	.	.	.	.	.	16e-/	.	16g/)	.	.	.	.	.	.	.	16ee- 16g\)	.	16gg 16ee-\)	.
.	.	8BB-/J	.	8B-/J	.	16f/	.	16a-'</	.	16b-\LL	.	.	.	16b-\LL	.	16ff 16a-'>\	.	16aa- 16ff'>\	.
.	.	.	.	.	.	16d/JJ	.	16f'</JJ	.	16b-\JJ	.	.	.	16b-\JJ	.	16ddJJ 16f'>\	.	16ffJJ 16dd'>\	.
.	.	8r	.	8r	.	(<4d/	.	4f/	.	8b-\L	.	8r	.	8b-\L	.	(>4dd 4f\	.	(>4ff 4dd\	.
.	.	8BB-/	.	8B-/	.	.	.	.	.	8b-\J	.	8BB-/	.	8b-\J	.	.	.	.	.
.	.	4E-\	.	4e- 4G\	.	8e-/)	.	8e-/	.	4b-\	.	4E-\	.	4b-\	.	8ee- 8g\)	.	8ee-\)	.
.	.	.	.	.	.	8r	.	8r	.	.	.	.	.	.	.	8r	.	8r	.
!!LO:PB:g=original
=53:|!|:	=53:|!|:	=53:|!|:	=53:|!|:	=53:|!|:	=53:|!|:	=53:|!|:	=53:|!|:	=53:|!|:	=53:|!|:	=53:|!|:	=53:|!|:	=53:|!|:	=53:|!|:	=53:|!|:	=53:|!|:	=53:|!|:	=53:|!|:	=53:|!|:	=53:|!|:
*>E	*	*>E	*	*>E	*	*>E	*	*>E	*	*>E	*	*>E	*	*>E	*	*>E	*	*>E	*
!	!	!	!	!LO:TX:a:Bi:t=Col b&colon;	!	!	!	!	!	!LO:TX:a:Bi:t=Tromba	!	!	!	!	!	!	!	!	!
!	!	!	!	!	!	!	!	!	!	!	!	!	!	!	!LO:DY:b:rj	!	!	!	!
8BB-/L	.	4r	.	4ryy	.	4r	.	4r	.	8b-\L	.	8B-L 8D\	.	8b-L 8d/	f	2.r	.	8bb-L 8dd\	.
16BB-/L	.	.	.	.	.	.	.	.	.	16b-\L	.	16B-L 16D\	.	16b-L 16d/	.	.	.	16bb-L 16dd\	.
!	!	!	!	!	!	!	!	!	!	!	!LO:DY:a:Bi:t=%sorte	!	!	!	!	!	!	!	!
16BB-/JJ	.	.	.	.	.	.	.	.	.	16b-\JJ	f	16B-JJ 16D\	.	16b-JJ 16d/	.	.	.	16bb-JJ 16dd\	.
4BB-/	.	4r	.	4ryy	.	4r	.	4r	.	8b-/L	.	8B-L 8D\	.	8b-L 8d/	.	.	.	8bb-L 8dd'>\	.
.	.	.	.	.	.	.	.	.	.	8f/	.	8c 8F\	.	8cc 8f/	.	.	.	8ccc 8ff'>\	.
4r	.	8r	.	8ryy	.	8r	.	8r	.	8d/	.	8d 8B-\	.	8dd 8b-/	.	.	.	8ddd 8bb-'>\	.
!	!	!	!	!	!	!LO:TX:a:Bi:t=Unis	!	!	!	!	!	!	!	!	!	!	!	!	!
.	.	(>16F\LL	.	(y>16f\LLyy	.	(y<16f/LLyy	.	(<16f/LL	.	8f/J	.	8cJ 8F\	.	8ccJ 8f/	.	.	.	8cccJ 8ff'>\	.
.	.	32G\L	.	32g\Lyy	.	32g/Lyy	.	32g/L	.	.	.	.	.	.	.	.	.	.	.
.	.	32An\JJJ	.	32an\JJJyy	.	32an/JJJ)yy	.	32an/JJJ)	.	.	.	.	.	.	.	.	.	.	.
=54	=54	=54	=54	=54	=54	=54	=54	=54	=54	=54	=54	=54	=54	=54	=54	=54	=54	=54	=54
8BB-/L	.	4B-\)	.	4b-\)yy	.	4b-\yy	.	4b-\	.	8b-\L	.	8B-L 8D\	.	8b-L 8d/	.	2.r	.	8bb-L 8dd\	.
16BB-/L	.	.	.	.	.	.	.	.	.	16b-\L	.	16B-L 16D\	.	16b-L 16d/	.	.	.	16bb-L 16dd\	.
16BB-/JJ	.	.	.	.	.	.	.	.	.	16b-\JJ	.	16B-JJ 16D\	.	16b-JJ 16d/	.	.	.	16bb-JJ 16dd\	.
4BB-/	.	4r	.	4ryy	.	4ryy	.	4r	.	8b-\L	.	8B-L 8D\	.	8b-L 8d/	.	.	.	8bb-L 8dd\	.
.	.	.	.	.	.	.	.	.	.	8f\	.	8c 8F\	.	8cc 8f/	.	.	.	8ccc 8ff\	.
4r	.	8r	.	8ryy	.	8ryy	.	8r	.	8d\	.	8d 8B-\	.	8dd 8b-/	.	.	.	8ddd 8bb-\	.
.	.	(>16F\LL	.	(y>16f\LLyy	.	(y<16f/LLyy	.	(<16f/LL	.	8f\J	.	8cJ 8F\	.	8ccJ 8f/	.	.	.	8cccJ 8ff\	.
.	.	32G\L	.	32g\Lyy	.	32g/Lyy	.	32g/L	.	.	.	.	.	.	.	.	.	.	.
.	.	32An\JJJ	.	32an\JJJyy	.	32an/JJJyy	.	32an/JJJ	.	.	.	.	.	.	.	.	.	.	.
=55	=55	=55	=55	=55	=55	=55	=55	=55	=55	=55	=55	=55	=55	=55	=55	=55	=55	=55	=55
8BB-/	.	4B-\)	.	4b-\)yy	.	4b-/)yy	.	4b-/)	.	8b-/L	.	8B-L 8D\	.	8b-L 8d/	.	2.r	.	8bb-L 8dd'>\	.
8r	.	.	.	.	.	.	.	.	.	8f/	.	8c 8F\	.	8cc 8f/	.	.	.	8ccc 8ff'>\	.
8BB-/	.	8r	.	8ryy	.	8ryy	.	8r	.	8d/	.	8d 8B-\	.	8dd 8b-/	.	.	.	8ddd 8bb-'>\	.
8r	.	(>16F\LL	.	(y>16f\LLyy	.	(y<16f/LLyy	.	(<16f/LL	.	8f/	.	8c 8F\	.	8cc 8f/	.	.	.	8ccc 8ff'>\	.
.	.	32G\L	.	32g\Lyy	.	32g/Lyy	.	32g/L	.	.	.	.	.	.	.	.	.	.	.
.	.	32An\JJJ	.	32an\JJJyy	.	32an/JJJyy	.	32an/JJJ	.	.	.	.	.	.	.	.	.	.	.
8BB-/	.	8B-\L)	.	8b-\L)yy	.	8b-/L)yy	.	8b-/L)	.	8b-/	.	8d 8B-\	.	8dd 8b-/	.	.	.	8ddd 8bb-'>\	.
8r	.	16r	.	16ryy	.	16ryy	.	16r	.	8f/J	.	8e-J 8c\	.	8ee-J 8cc/	.	.	.	8eee-J 8ccc\	.
.	.	(>64F\LLL	.	(y>64f\LLLyy	.	(y<64f/LLLyy	.	(<64f/LLL	.	.	.	.	.	.	.	.	.	.	.
.	.	64E-\	.	64e-\yy	.	64e-/yy	.	64e-/	.	.	.	.	.	.	.	.	.	.	.
.	.	64D\	.	64d\yy	.	64d/yy	.	64d/	.	.	.	.	.	.	.	.	.	.	.
.	.	64C\JJJJ	.	64c\JJJJyy	.	64c/JJJJyy	.	64c/JJJJ	.	.	.	.	.	.	.	.	.	.	.
=56	=56	=56	=56	=56	=56	=56	=56	=56	=56	=56	=56	=56	=56	=56	=56	=56	=56	=56	=56
2.BB-TT/	<[	4BB-/)	.	4B-\)	.	4B-/)	.	4B-/)	.	8B-/L	.	2.f 2.d\	.	2.ff 2.dd\	.	2.r	.	2.fff 2.ddd\	.
.	.	.	.	.	.	.	.	.	.	16d/L	.	.	.	.	.	.	.	.	.
.	.	.	.	.	.	.	.	.	.	16f/JJ	.	.	.	.	.	.	.	.	.
.	.	8r	.	8r	.	8r	.	8r	.	4b-/	.	.	.	.	.	.	.	.	.
!	!	!	!	!LO:TX:a:Bi:t=Col b&colon;	!	!	!	!	!	!	!	!	!	!	!	!	!	!	!
!	!	!	!	!	!	!LO:TX:a:Bi:t=Unis	!	!	!	!	!	!	!	!	!	!	!	!	!
.	.	32BB-\LLL	.	32B-\LLLyy	.	(y>32b-\LLLyy	.	(>32b-\LLL	.	.	.	.	.	.	.	.	.	.	.
.	.	32C\	.	32c\yy	.	32cc\yy	.	32cc\	.	.	.	.	.	.	.	.	.	.	.
.	.	32D\	.	32d\yy	.	32dd\yy	.	32dd\	.	.	.	.	.	.	.	.	.	.	.
.	.	32E-\JJJ	.	32e-\JJJyy	.	32ee-\JJJyy	.	32ee-\JJJ	.	.	.	.	.	.	.	.	.	.	.
.	.	8F\L	.	8f\Lyy	.	8ff\L)yy	.	8ff\L)	.	4r	.	.	.	.	.	.	.	.	.
.	.	32D\LL	.	32d\LLyy	.	(y>32dd\LLyy	.	(>32dd\LL	.	.	.	.	.	.	.	.	.	.	.
.	.	32E-\	.	32e-\yy	.	32ee-\yy	.	32ee-\	.	.	.	.	.	.	.	.	.	.	.
.	.	32F\	.	32f\yy	.	32ff\yy	.	32ff\	.	.	.	.	.	.	.	.	.	.	.
.	.	32G\JJJ	.	32g\JJJyy	.	32gg\JJJ)yy	.	32gg\JJJ)	.	.	.	.	.	.	.	.	.	.	.
=57	=57	=57	=57	=57	=57	=57	=57	=57	=57	=57	=57	=57	=57	=57	=57	=57	=57	=57	=57
!	!	!	!	!	!	!	!LO:DY:b:rj	!	!LO:DY:b:rj	!	!	!	!	!	!	!	!	!	!
2.BB-TT/	[ sf >	8.A-X\L	.	8.a-X\Lyy	.	8.aa-X\Lyy	sfy	8.aa-X\L	sf	2.r	.	2.r	.	2.r	.	2.r	.	2.r	.
.	.	16G\Jk	.	16g\Jkyy	.	16gg\Jkyy	.	16gg\Jk	.	.	.	.	.	.	.	.	.	.	.
.	.	16F\LL	.	16f\LLyy	.	16ff\LLyy	.	16ff\LL	.	.	.	.	.	.	.	.	.	.	.
.	.	16E-\	.	16e-\yy	.	16ee-\yy	.	16ee-\	.	.	.	.	.	.	.	.	.	.	.
.	.	16D\	.	16d\yy	.	16dd\yy	.	16dd\	.	.	.	.	.	.	.	.	.	.	.
.	.	16C\JJ	.	16c\JJyy	.	16cc\JJyy	.	16cc\JJ	.	.	.	.	.	.	.	.	.	.	.
.	.	16BB-/LL	.	16B-/LLyy	.	16b-/LLyy	.	16b-/LL	.	.	.	.	.	.	.	.	.	.	.
.	.	16AA-/	.	16A-/yy	.	16a-/yy	.	16a-/	.	.	.	.	.	.	.	.	.	.	.
.	.	16GG/	.	16G/yy	.	16g/yy	.	16g/	.	.	.	.	.	.	.	.	.	.	.
!!LO:TX:a:Bi:t=Da Capo Trio
.	]]	16FF/JJ	.	16F/JJyy	.	16f/JJyy	.	16f/JJ	.	.	.	.	.	.	.	.	.	.	.
==	==	==	==	==	==	==	==	==	==	==	==	==	==	==	==	==	==	==	==
*-	*-	*-	*-	*-	*-	*-	*-	*-	*-	*-	*-	*-	*-	*-	*-	*-	*-	*-	*-
!!!system-decoration: {(s1,s2,s3,s4,s5)}{(s6,s7,s8,s9)}[(s10)]
!!!RDF**kern: > = above
!!!RDF**kern: < = below
!!!RDF**dynam: > = "dim", fontstyle= "bold-italic"
!!!RDF**dynam: < = "cres", fontstyle= "bold-italic"
!!!RDF**kern: | = vertical stroke
!!!RDF**kern: N = linked
!!!RDF**kern: i = editorial accidental
!!!EED: Wojciech Jakubiak-Danek
!!!EEV: 2021-06-10
!!!ENC: Marcin Jachim
!!!END: 2021-05-30
!!!YEC: Copyright 2022 Narodowy Instytut Fryderyka Chopina (https://polishscores.org)
!!!YEM: Licence CC BY 4.0 (https://creativecommons.org/licenses/by/4.0)
